;FLAVOR:Marlin
;TIME:2127
;Filament used: 3.02102m
;Layer height: 0.2
;MINX:39.736
;MINY:6.64
;MINZ:0.3
;MAXX:109.5
;MAXY:132.489
;MAXZ:13.3
;Generated with Cura_SteamEngine 4.7.1
M140 S60
M105
M190 S60
M104 S240
M105
M109 S240
M82 ;absolute extrusion mode
M82 ;absolute extrusion mode
G21       ;metric values
G90       ;absolute positioning
M82       ;set extruder to absolute mode
M106      ;start with the fan on
G28 X0 Y0 ;home X/Y
G28 Z0    ;home Z
G92 E0    ;zero the extruded length
G29       ;initiate auto bed leveling sequence
G1 X150 Y145 Z15 F4000
G1 X150 Y145 Z0.30 F1000
G1 X1 Y150 Z0.25 E15.0 F2000
G1 X1 Y150 Z0.25 E14.0 F4000
G1 X1 Y1 Z0.25 F16000
G1 X1 Y1 Z0.25 E15.0 F4000
G92 E0
M107      ;start with the fan off
G92 E0
G92 E0
G92 E0
G1 F1800 E-3
;LAYER_COUNT:66
;LAYER:0
M107
M204 S3000
M205 X30 Y30
G0 F5400 X108.701 Y61.104 Z0.3
M204 S1000
M205 X20 Y20
;TYPE:SUPPORT
G1 F1800 E0.12473
G1 F3600 X109.258 Y61.103 E0.1382
G1 X109.5 Y60.862 E0.14647
G1 X109.5 Y75.145 E0.49207
G1 X109.258 Y74.904 E0.50033
G1 X108.701 Y74.904 E0.51381
G1 X108.701 Y61.104 E0.84773
M204 S3000
M205 X30 Y30
G1 F1800 E-2.15227
G0 F5400 X108.861 Y63.47
M204 S1000
M205 X20 Y20
G1 F1800 E0.97245
G1 F3600 X108.924 Y63.544 E0.9748
G1 X109.078 Y63.92 E0.98463
G1 X109.112 Y64.296 E0.99377
G1 X109.064 Y64.672 E1.00294
G1 X108.941 Y65.048 E1.01251
G1 X108.861 Y65.186 E1.01637
G1 X108.861 Y69.486 E1.12042
G1 X108.924 Y69.56 E1.12277
G1 X109.078 Y69.936 E1.1326
G1 X109.112 Y70.312 E1.14174
G1 X109.064 Y70.688 E1.15091
G1 X108.941 Y71.064 E1.16048
G1 X108.861 Y71.202 E1.16434
M204 S3000
M205 X30 Y30
G1 F1800 E-1.83566
;MESH:M5Paper_OuterCover_Reduced.stl
G0 F5400 X106.78 Y71.202
G0 X106.73 Y75.774
G0 X106.8 Y75.704
M204 S1000
M205 X20 Y20
;TYPE:WALL-OUTER
G1 F1800 E1.28907
G1 F3600 X108.727 Y75.704 E1.38232
G1 X108.927 Y75.704 E1.392
G1 X108.927 Y75.904 E1.39827
G1 X108.926 Y124.964 E3.77245
G1 X108.865 Y125.459 E3.79659
G1 X108.706 Y125.937 E3.82097
G1 X108.459 Y126.368 E3.84501
G1 X108.132 Y126.743 E3.86908
G1 X107.732 Y127.05 E3.89349
G1 X107.286 Y127.271 E3.91757
G1 X106.804 Y127.398 E3.9417
G1 X106.397 Y127.431 E3.96146
G1 X100.703 Y127.431 E4.23701
G1 X96.193 Y131.941 E4.54567
G1 X96.15 Y131.984 E4.54861
G1 X96.025 Y132.05 E4.55545
G1 X95.915 Y132.035 E4.56082
G1 X95.873 Y132.007 E4.56327
G1 X95.83 Y131.964 E4.56621
G1 X91.298 Y127.431 E4.87641
G1 X58.704 Y127.43 E6.45375
G1 X54.193 Y131.941 E6.76247
G1 X54.152 Y131.982 E6.76528
G1 X54.037 Y132.048 E6.7717
G1 X53.928 Y132.04 E6.77698
G1 X53.872 Y132.006 E6.78015
G1 X53.831 Y131.965 E6.78296
G1 X49.297 Y127.43 E7.0933
G1 X43.607 Y127.43 E7.36866
G1 X43.134 Y127.387 E7.39164
G1 X42.654 Y127.247 E7.41584
G1 X42.215 Y127.016 E7.43984
G1 X41.823 Y126.701 E7.46418
G1 X41.505 Y126.316 E7.48834
G1 X41.268 Y125.877 E7.51249
G1 X41.123 Y125.403 E7.53648
G1 X41.073 Y124.894 E7.56123
G1 X41.073 Y44.401 E11.45656
G1 X41.074 Y10.443 E13.09991
G1 X41.135 Y9.948 E13.12405
G1 X41.294 Y9.472 E13.14833
G1 X41.543 Y9.037 E13.17259
G1 X41.868 Y8.664 E13.19653
G1 X42.268 Y8.357 E13.22093
G1 X42.714 Y8.136 E13.24502
G1 X43.196 Y8.009 E13.26914
G1 X43.603 Y7.976 E13.2889
G1 X106.393 Y7.977 E16.32753
G1 X106.866 Y8.02 E16.35051
G1 X107.346 Y8.16 E16.37471
G1 X107.789 Y8.392 E16.39891
G1 X108.174 Y8.704 E16.42289
G1 X108.495 Y9.091 E16.44722
G1 X108.732 Y9.53 E16.47137
G1 X108.877 Y10.004 E16.49536
G1 X108.927 Y10.514 E16.52015
G1 X108.927 Y60.303 E18.92962
G1 X106.8 Y60.305 E19.03255
G1 X106.8 Y75.704 E19.77776
M204 S3000
M205 X30 Y30
G0 F5400 X107 Y75.704
G0 X107 Y75.804
G0 X100.665 Y17.822
G0 X100.047 Y16.783
G0 X99.102 Y16.245
G0 X51.485 Y16.165
G0 X50.357 Y16.476
G0 X49.469 Y17.323
G0 X49.557 Y17.369
M204 S1000
M205 X20 Y20
G1 F3600 X49.352 Y17.93 E19.80667
G1 X49.3 Y18.393 E19.82921
G1 X49.3 Y117.017 E24.60197
G1 X49.373 Y117.575 E24.62921
G1 X49.606 Y118.127 E24.6582
G1 X49.98 Y118.596 E24.68723
G1 X50.464 Y118.944 E24.71608
G1 X50.908 Y119.124 E24.73927
G1 X51.456 Y119.201 E24.76605
G1 X51.49 Y119.204 E24.7677
G1 X98.513 Y119.204 E27.04331
G1 X99.072 Y119.13 E27.07059
G1 X99.623 Y118.897 E27.09955
G1 X100.092 Y118.523 E27.12857
G1 X100.443 Y118.038 E27.15755
G1 X100.648 Y117.477 E27.18645
G1 X100.7 Y117.015 E27.20895
G1 X100.7 Y96.516 E28.20097
G1 X100.765 Y96.033 E28.22455
G1 X100.915 Y95.653 E28.24432
G1 X101.191 Y95.271 E28.26713
G1 X101.465 Y95.041 E28.28444
G1 X101.89 Y95.131 E28.30547
G1 X102.5 Y95.177 E28.33507
G1 X103.111 Y95.131 E28.36472
G1 X103.71 Y94.997 E28.39443
G1 X104.284 Y94.776 E28.42419
G1 X104.817 Y94.474 E28.45384
G1 X105.303 Y94.096 E28.48363
G1 X105.726 Y93.65 E28.51338
G1 X106.079 Y93.149 E28.54304
G1 X106.355 Y92.6 E28.57278
G1 X106.547 Y92.017 E28.60248
G1 X106.653 Y91.414 E28.63211
G1 X106.673 Y91.009 E28.65173
G1 X106.674 Y86.996 E28.84594
G1 X106.628 Y86.392 E28.87525
G1 X106.493 Y85.794 E28.90492
G1 X106.272 Y85.219 E28.93473
G1 X105.97 Y84.686 E28.96437
G1 X105.592 Y84.201 E28.99413
G1 X105.147 Y83.777 E29.02388
G1 X104.645 Y83.424 E29.05358
G1 X104.096 Y83.148 E29.08331
G1 X103.513 Y82.955 E29.11303
G1 X102.909 Y82.85 E29.1427
G1 X102.296 Y82.835 E29.17237
G1 X101.689 Y82.91 E29.20197
G1 X101.467 Y82.964 E29.21303
G1 X101.151 Y82.692 E29.23321
G1 X100.907 Y82.339 E29.25397
G1 X100.746 Y81.89 E29.27706
G1 X100.7 Y81.49 E29.29654
G1 X100.7 Y18.391 E32.35012
G1 X100.627 Y17.832 E32.3774
G1 X100.394 Y17.28 E32.4064
G1 X100.02 Y16.811 E32.43543
G1 X99.536 Y16.463 E32.46428
G1 X99.092 Y16.283 E32.48746
G1 X98.544 Y16.207 E32.51424
G1 X98.51 Y16.204 E32.51589
G1 X51.487 Y16.204 E34.7915
G1 X50.928 Y16.277 E34.81878
G1 X50.377 Y16.51 E34.84773
G1 X49.908 Y16.884 E34.87676
G1 X49.557 Y17.369 E34.90573
M204 S3000
M205 X30 Y30
G0 F5400 X49.489 Y17.556
G0 X49.21 Y17.184
M204 S1000
M205 X20 Y20
;TYPE:SKIN
G1 F3600 X48.97 Y17.84 E34.93953
G1 X48.91 Y18.371 E34.96539
G1 X48.91 Y117.042 E39.74043
G1 X48.993 Y117.678 E39.77147
G1 X49.267 Y118.328 E39.8056
G1 X49.709 Y118.881 E39.83986
G1 X50.274 Y119.287 E39.87353
G1 X50.806 Y119.504 E39.90134
G1 X51.412 Y119.589 E39.93095
G1 X51.473 Y119.594 E39.93391
G1 X98.538 Y119.594 E42.21155
G1 X99.175 Y119.51 E42.24265
G1 X99.824 Y119.236 E42.27674
G1 X100.377 Y118.794 E42.311
G1 X100.79 Y118.223 E42.3451
G1 X101.03 Y117.567 E42.37891
G1 X101.09 Y117.037 E42.40472
G1 X101.09 Y96.538 E43.39674
G1 X101.144 Y96.135 E43.41641
G1 X101.261 Y95.84 E43.43177
G1 X101.479 Y95.538 E43.4498
G1 X101.57 Y95.462 E43.45553
G1 X101.835 Y95.517 E43.46863
G1 X102.5 Y95.569 E43.50091
G1 X103.168 Y95.517 E43.53334
G1 X103.823 Y95.371 E43.56581
G1 X104.451 Y95.129 E43.59838
G1 X105.034 Y94.8 E43.63078
G1 X105.566 Y94.386 E43.6634
G1 X106.028 Y93.898 E43.69592
G1 X106.414 Y93.35 E43.72836
G1 X106.716 Y92.75 E43.76086
G1 X106.926 Y92.112 E43.79337
G1 X107.041 Y91.457 E43.82555
G1 X107.063 Y91.019 E43.84677
G1 X107.064 Y86.981 E44.04219
G1 X107.014 Y86.334 E44.07359
G1 X106.867 Y85.681 E44.10598
G1 X106.625 Y85.052 E44.1386
G1 X106.295 Y84.469 E44.17102
G1 X105.882 Y83.938 E44.20357
G1 X105.395 Y83.475 E44.23609
G1 X104.846 Y83.089 E44.26857
G1 X104.246 Y82.787 E44.30108
G1 X103.608 Y82.575 E44.33361
G1 X102.948 Y82.46 E44.36603
G1 X102.277 Y82.445 E44.39851
G1 X101.618 Y82.526 E44.43064
G1 X101.57 Y82.538 E44.43304
G1 X101.445 Y82.43 E44.44103
G1 X101.257 Y82.159 E44.45699
G1 X101.13 Y81.803 E44.47528
G1 X101.09 Y81.463 E44.49185
G1 X101.09 Y18.366 E47.54534
G1 X101.007 Y17.729 E47.57642
G1 X100.733 Y17.079 E47.61056
G1 X100.291 Y16.526 E47.64482
G1 X99.726 Y16.12 E47.67849
G1 X99.194 Y15.903 E47.70629
G1 X98.588 Y15.819 E47.7359
G1 X98.527 Y15.814 E47.73886
G1 X51.462 Y15.814 E50.0165
G1 X50.825 Y15.897 E50.04759
G1 X50.176 Y16.171 E50.08168
G1 X49.623 Y16.613 E50.11594
G1 X49.21 Y17.184 E50.15004
M204 S3000
M205 X30 Y30
G0 F5400 X41.464 Y10.466
M204 S1000
M205 X20 Y20
G1 F3600 X41.517 Y10.035 E50.17106
G1 X41.652 Y9.633 E50.19158
G1 X41.863 Y9.263 E50.21219
G1 X42.133 Y8.953 E50.23209
G1 X42.481 Y8.686 E50.25331
G1 X42.85 Y8.504 E50.27322
G1 X43.265 Y8.394 E50.294
G1 X43.611 Y8.366 E50.3108
G1 X106.38 Y8.367 E53.34841
G1 X106.794 Y8.404 E53.36853
G1 X107.199 Y8.523 E53.38895
G1 X107.57 Y8.717 E53.40921
G1 X107.9 Y8.984 E53.42976
G1 X108.171 Y9.311 E53.45031
G1 X108.369 Y9.678 E53.47049
G1 X108.493 Y10.083 E53.49099
G1 X108.537 Y10.532 E53.51282
G1 X108.537 Y59.913 E55.90254
G1 X106.41 Y59.915 E56.00547
G1 X106.41 Y76.094 E56.78843
G1 X108.537 Y76.094 E56.89136
G1 X108.536 Y124.941 E59.25524
G1 X108.483 Y125.372 E59.27626
G1 X108.348 Y125.776 E59.29687
G1 X108.139 Y126.142 E59.31727
G1 X107.867 Y126.454 E59.3373
G1 X107.519 Y126.721 E59.35852
G1 X107.15 Y126.903 E59.37843
G1 X106.735 Y127.013 E59.39921
G1 X106.389 Y127.041 E59.41601
G1 X100.541 Y127.041 E59.69902
G1 X96 Y131.584 E60.00986
G1 X92.397 Y127.98 E60.25648
G1 X92.397 Y127.978 E60.25658
G1 X91.46 Y127.041 E60.32071
G1 X58.542 Y127.04 E61.91372
G1 X54 Y131.584 E62.22464
G1 X50.34 Y127.923 E62.47516
G1 X49.459 Y127.04 E62.53552
G1 X43.62 Y127.04 E62.81809
G1 X43.206 Y127.003 E62.83821
G1 X42.803 Y126.885 E62.85853
G1 X42.429 Y126.688 E62.87899
G1 X42.096 Y126.42 E62.89967
G1 X41.831 Y126.1 E62.91978
G1 X41.631 Y125.729 E62.94018
G1 X41.507 Y125.324 E62.96067
G1 X41.463 Y124.875 E62.98251
G1 X41.463 Y44.401 E66.87692
G1 X41.464 Y10.466 E68.51916
M204 S3000
M205 X30 Y30
G0 F5400 X107.113 Y8.684
M204 S1000
M205 X20 Y20
G1 F3600 X108.213 Y9.784 E68.59444
M204 S3000
M205 X30 Y30
G0 F5400 X108.351 Y10.487
M204 S1000
M205 X20 Y20
G1 F3600 X106.414 Y8.551 E68.72697
M204 S3000
M205 X30 Y30
G0 F5400 X105.844 Y8.546
M204 S1000
M205 X20 Y20
G1 F3600 X108.356 Y11.058 E68.89889
M204 S3000
M205 X30 Y30
G0 F5400 X108.356 Y11.624
M204 S1000
M205 X20 Y20
G1 F3600 X105.279 Y8.546 E69.10951
M204 S3000
M205 X30 Y30
G0 F5400 X104.713 Y8.546
M204 S1000
M205 X20 Y20
G1 F3600 X108.356 Y12.189 E69.35883
M204 S3000
M205 X30 Y30
G0 F5400 X108.356 Y12.755
M204 S1000
M205 X20 Y20
G1 F3600 X104.147 Y8.546 E69.64689
M204 S3000
M205 X30 Y30
G0 F5400 X103.581 Y8.546
M204 S1000
M205 X20 Y20
G1 F3600 X108.356 Y13.321 E69.97369
M204 S3000
M205 X30 Y30
G0 F5400 X108.356 Y13.886
M204 S1000
M205 X20 Y20
G1 F3600 X103.016 Y8.546 E70.33915
M204 S3000
M205 X30 Y30
G0 F5400 X102.45 Y8.546
M204 S1000
M205 X20 Y20
G1 F3600 X108.356 Y14.452 E70.74335
M204 S3000
M205 X30 Y30
G0 F5400 X108.356 Y15.018
M204 S1000
M205 X20 Y20
G1 F3600 X101.884 Y8.546 E71.18628
M204 S3000
M205 X30 Y30
G0 F5400 X101.319 Y8.546
M204 S1000
M205 X20 Y20
G1 F3600 X108.356 Y15.583 E71.66789
M204 S3000
M205 X30 Y30
G0 F5400 X108.356 Y16.149
M204 S1000
M205 X20 Y20
G1 F3600 X100.753 Y8.546 E72.18823
M204 S3000
M205 X30 Y30
G0 F5400 X100.187 Y8.546
M204 S1000
M205 X20 Y20
G1 F3600 X108.356 Y16.715 E72.7473
M204 S3000
M205 X30 Y30
G0 F5400 X108.356 Y17.28
M204 S1000
M205 X20 Y20
G1 F3600 X99.622 Y8.546 E73.34505
M204 S3000
M205 X30 Y30
G0 F5400 X99.056 Y8.546
M204 S1000
M205 X20 Y20
G1 F3600 X108.356 Y17.846 E73.98153
M204 S3000
M205 X30 Y30
G0 F5400 X108.356 Y18.412
M204 S1000
M205 X20 Y20
G1 F3600 X98.49 Y8.546 E74.65674
M204 S3000
M205 X30 Y30
G0 F5400 X97.925 Y8.546
M204 S1000
M205 X20 Y20
G1 F3600 X108.356 Y18.978 E75.37066
M204 S3000
M205 X30 Y30
G0 F5400 X108.356 Y19.543
M204 S1000
M205 X20 Y20
G1 F3600 X97.359 Y8.546 E76.12328
M204 S3000
M205 X30 Y30
G0 F5400 X96.793 Y8.546
M204 S1000
M205 X20 Y20
G1 F3600 X108.356 Y20.109 E76.91464
M204 S3000
M205 X30 Y30
G0 F5400 X108.356 Y20.675
M204 S1000
M205 X20 Y20
G1 F3600 X96.228 Y8.546 E77.7447
M204 S3000
M205 X30 Y30
G0 F5400 X95.662 Y8.546
M204 S1000
M205 X20 Y20
G1 F3600 X108.356 Y21.24 E78.61346
M204 S3000
M205 X30 Y30
G0 F5400 X108.356 Y21.806
M204 S1000
M205 X20 Y20
G1 F3600 X95.096 Y8.546 E79.52096
M204 S3000
M205 X30 Y30
G0 F5400 X94.53 Y8.546
M204 S1000
M205 X20 Y20
G1 F3600 X108.356 Y22.372 E80.46719
M204 S3000
M205 X30 Y30
G0 F5400 X108.356 Y22.937
M204 S1000
M205 X20 Y20
G1 F3600 X93.965 Y8.546 E81.45209
M204 S3000
M205 X30 Y30
G0 F5400 X93.399 Y8.546
M204 S1000
M205 X20 Y20
G1 F3600 X108.356 Y23.503 E82.47573
M204 S3000
M205 X30 Y30
G0 F5400 X108.356 Y24.069
M204 S1000
M205 X20 Y20
G1 F3600 X92.833 Y8.546 E83.53811
M204 S3000
M205 X30 Y30
G0 F5400 X92.268 Y8.546
M204 S1000
M205 X20 Y20
G1 F3600 X99.593 Y15.872 E84.03946
M204 S3000
M205 X30 Y30
G0 F5400 X98.825 Y15.67
M204 S1000
M205 X20 Y20
G1 F3600 X91.702 Y8.546 E84.52698
M204 S3000
M205 X30 Y30
G0 F5400 X91.136 Y8.546
M204 S1000
M205 X20 Y20
G1 F3600 X98.223 Y15.633 E85.012
M204 S3000
M205 X30 Y30
G0 F5400 X97.657 Y15.633
M204 S1000
M205 X20 Y20
G1 F3600 X90.571 Y8.546 E85.497
M204 S3000
M205 X30 Y30
G0 F5400 X90.005 Y8.546
M204 S1000
M205 X20 Y20
G1 F3600 X97.092 Y15.633 E85.98202
M204 S3000
M205 X30 Y30
G0 F5400 X96.526 Y15.633
M204 S1000
M205 X20 Y20
G1 F3600 X89.439 Y8.546 E86.46705
M204 S3000
M205 X30 Y30
G0 F5400 X88.874 Y8.546
M204 S1000
M205 X20 Y20
G1 F3600 X95.96 Y15.633 E86.95204
M204 S3000
M205 X30 Y30
G0 F5400 X95.395 Y15.633
M204 S1000
M205 X20 Y20
G1 F3600 X88.308 Y8.546 E87.43706
M204 S3000
M205 X30 Y30
G0 F5400 X87.742 Y8.546
M204 S1000
M205 X20 Y20
G1 F3600 X94.829 Y15.633 E87.92209
M204 S3000
M205 X30 Y30
G0 F5400 X94.263 Y15.633
M204 S1000
M205 X20 Y20
G1 F3600 X87.177 Y8.546 E88.40708
M204 S3000
M205 X30 Y30
G0 F5400 X86.611 Y8.546
M204 S1000
M205 X20 Y20
G1 F3600 X93.698 Y15.633 E88.8921
M204 S3000
M205 X30 Y30
G0 F5400 X93.132 Y15.633
M204 S1000
M205 X20 Y20
G1 F3600 X86.045 Y8.546 E89.37713
M204 S3000
M205 X30 Y30
G0 F5400 X85.48 Y8.546
M204 S1000
M205 X20 Y20
G1 F3600 X92.566 Y15.633 E89.86212
M204 S3000
M205 X30 Y30
G0 F5400 X92 Y15.633
M204 S1000
M205 X20 Y20
G1 F3600 X84.914 Y8.546 E90.34711
M204 S3000
M205 X30 Y30
G0 F5400 X84.348 Y8.546
M204 S1000
M205 X20 Y20
G1 F3600 X91.435 Y15.633 E90.83214
M204 S3000
M205 X30 Y30
G0 F5400 X90.869 Y15.633
M204 S1000
M205 X20 Y20
G1 F3600 X83.782 Y8.546 E91.31716
M204 S3000
M205 X30 Y30
G0 F5400 X83.217 Y8.546
M204 S1000
M205 X20 Y20
G1 F3600 X90.303 Y15.633 E91.80215
M204 S3000
M205 X30 Y30
G0 F5400 X89.738 Y15.633
M204 S1000
M205 X20 Y20
G1 F3600 X82.651 Y8.546 E92.28718
M204 S3000
M205 X30 Y30
G0 F5400 X82.085 Y8.546
M204 S1000
M205 X20 Y20
G1 F3600 X89.172 Y15.633 E92.7722
M204 S3000
M205 X30 Y30
G0 F5400 X88.606 Y15.633
M204 S1000
M205 X20 Y20
G1 F3600 X81.52 Y8.546 E93.2572
M204 S3000
M205 X30 Y30
G0 F5400 X80.954 Y8.546
M204 S1000
M205 X20 Y20
G1 F3600 X88.041 Y15.633 E93.74222
M204 S3000
M205 X30 Y30
G0 F5400 X87.475 Y15.633
M204 S1000
M205 X20 Y20
G1 F3600 X80.388 Y8.546 E94.22725
M204 S3000
M205 X30 Y30
G0 F5400 X79.823 Y8.546
M204 S1000
M205 X20 Y20
G1 F3600 X86.909 Y15.633 E94.71224
M204 S3000
M205 X30 Y30
G0 F5400 X86.344 Y15.633
M204 S1000
M205 X20 Y20
G1 F3600 X79.257 Y8.546 E95.19726
M204 S3000
M205 X30 Y30
G0 F5400 X78.691 Y8.546
M204 S1000
M205 X20 Y20
G1 F3600 X85.778 Y15.633 E95.68229
M204 S3000
M205 X30 Y30
G0 F5400 X85.212 Y15.633
M204 S1000
M205 X20 Y20
G1 F3600 X78.126 Y8.546 E96.16728
M204 S3000
M205 X30 Y30
G0 F5400 X77.56 Y8.546
M204 S1000
M205 X20 Y20
G1 F3600 X84.647 Y15.633 E96.6523
M204 S3000
M205 X30 Y30
G0 F5400 X84.081 Y15.633
M204 S1000
M205 X20 Y20
G1 F3600 X76.994 Y8.546 E97.13733
M204 S3000
M205 X30 Y30
G0 F5400 X76.429 Y8.546
M204 S1000
M205 X20 Y20
G1 F3600 X83.515 Y15.633 E97.62232
M204 S3000
M205 X30 Y30
G0 F5400 X82.949 Y15.633
M204 S1000
M205 X20 Y20
G1 F3600 X75.863 Y8.546 E98.10731
M204 S3000
M205 X30 Y30
G0 F5400 X75.297 Y8.546
M204 S1000
M205 X20 Y20
