;FLAVOR:Marlin
;TIME:3422
;Filament used: 5.66751m
;Layer height: 0.2
;MINX:40.361
;MINY:7.345
;MINZ:0.3
;MAXX:109.639
;MAXY:132.651
;MAXZ:12.7
;Generated with Cura_SteamEngine 4.7.1
M140 S70
M105
M190 S70
M104 S250
M105
M109 S250
M82 ;absolute extrusion mode
M82 ;absolute extrusion mode
G21       ;metric values
G90       ;absolute positioning
M82       ;set extruder to absolute mode
M106      ;start with the fan on
G28 X0 Y0 ;home X/Y
G28 Z0    ;home Z
G92 E0    ;zero the extruded length
G29       ;initiate auto bed leveling sequence
G1 X150 Y145 Z15 F4000
G1 X150 Y145 Z0.30 F1000
G1 X1 Y150 Z0.25 E15.0 F2000
G1 X1 Y150 Z0.25 E14.0 F4000
G1 X1 Y1 Z0.25 F16000
G1 X1 Y1 Z0.25 E15.0 F4000
G92 E0
M107      ;start with the fan off
G92 E0
G92 E0
G92 E0
G1 F1800 E-5
;LAYER_COUNT:63
;LAYER:0
M107
;MESH:M5Paper_OuterCover.stl
G0 F3600 X103.387 Y84.773 Z0.3
;TYPE:WALL-INNER
G1 F1800 E0
G1 F3600 X103.892 Y84.991 E0.02449
G1 X104.335 Y85.305 E0.04866
G1 X104.701 Y85.704 E0.07277
G1 X104.982 Y86.181 E0.09742
G1 X105.155 Y86.692 E0.12144
G1 X105.223 Y87.276 E0.14761
G1 X105.223 Y91.245 E0.32432
G1 X105.169 Y91.792 E0.34879
G1 X105.005 Y92.318 E0.37332
G1 X104.738 Y92.79 E0.39747
G1 X104.378 Y93.198 E0.42169
G1 X103.942 Y93.522 E0.44588
G1 X103.438 Y93.753 E0.47056
G1 X102.914 Y93.87 E0.49447
G1 X102.365 Y93.877 E0.51891
G1 X101.831 Y93.769 E0.54317
G1 X101.328 Y93.552 E0.56756
G1 X100.885 Y93.238 E0.59173
G1 X100.516 Y92.836 E0.61603
G1 X100.24 Y92.367 E0.64025
G1 X100.065 Y91.851 E0.66451
G1 X99.998 Y91.268 E0.69064
G1 X99.997 Y87.294 E0.86757
G1 X100.051 Y86.752 E0.89182
G1 X100.216 Y86.226 E0.91636
G1 X100.482 Y85.753 E0.94053
G1 X100.842 Y85.345 E0.96475
G1 X101.28 Y85.02 E0.98903
G1 X101.78 Y84.791 E1.01352
G1 X102.306 Y84.674 E1.03751
G1 X102.858 Y84.667 E1.06209
G1 X103.387 Y84.773 E1.08611
G0 X103.508 Y84.389
;TYPE:WALL-OUTER
G1 X104.087 Y84.64 E1.1142
G1 X104.602 Y85.005 E1.14231
G1 X105.025 Y85.466 E1.17016
G1 X105.347 Y86.012 E1.19838
G1 X105.547 Y86.602 E1.22612
G1 X105.621 Y87.242 E1.2548
G1 X105.623 Y87.276 E1.25632
G1 X105.623 Y91.268 E1.43405
G1 X105.563 Y91.873 E1.46112
G1 X105.374 Y92.477 E1.4893
G1 X105.066 Y93.022 E1.51717
G1 X104.65 Y93.494 E1.54518
G1 X104.143 Y93.87 E1.57328
G1 X103.57 Y94.133 E1.60135
G1 X102.958 Y94.269 E1.62926
G1 X102.327 Y94.278 E1.65736
G1 X101.711 Y94.153 E1.68535
G1 X101.133 Y93.903 E1.71338
G1 X100.618 Y93.538 E1.74149
G1 X100.195 Y93.077 E1.76934
G1 X99.873 Y92.532 E1.79753
G1 X99.673 Y91.941 E1.8253
G1 X99.598 Y91.291 E1.85444
G1 X99.597 Y87.274 E2.03328
G1 X99.657 Y86.671 E2.06026
G1 X99.846 Y86.067 E2.08844
G1 X100.154 Y85.521 E2.11635
G1 X100.57 Y85.049 E2.14436
G1 X101.077 Y84.673 E2.17246
G1 X101.65 Y84.411 E2.20051
G1 X102.262 Y84.275 E2.22842
G1 X102.894 Y84.266 E2.25657
G1 X103.508 Y84.389 E2.28444
G0 X103.691 Y84.468
G0 X103.269 Y85.146
;TYPE:SKIN
G1 X103.698 Y85.332 E2.30526
G1 X104.079 Y85.601 E2.32603
G1 X104.382 Y85.932 E2.34601
G1 X104.627 Y86.348 E2.3675
G1 X104.771 Y86.773 E2.38748
G1 X104.833 Y87.303 E2.41124
G1 X104.833 Y91.226 E2.5859
G1 X104.785 Y91.715 E2.60777
G1 X104.646 Y92.162 E2.62861
G1 X104.419 Y92.562 E2.64909
G1 X104.115 Y92.907 E2.66956
G1 X103.741 Y93.185 E2.69031
G1 X103.309 Y93.383 E2.71147
G1 X102.871 Y93.48 E2.73144
G1 X102.401 Y93.487 E2.75237
G1 X101.947 Y93.395 E2.77299
G1 X101.522 Y93.211 E2.79361
G1 X101.141 Y92.942 E2.81438
G1 X100.831 Y92.604 E2.8348
G1 X100.597 Y92.205 E2.85539
G1 X100.449 Y91.77 E2.87585
G1 X100.388 Y91.241 E2.89956
G1 X100.387 Y87.308 E3.07466
G1 X100.435 Y86.83 E3.09605
G1 X100.575 Y86.382 E3.11695
G1 X100.802 Y85.979 E3.13754
G1 X101.105 Y85.636 E3.15792
G1 X101.48 Y85.358 E3.1787
G1 X101.91 Y85.161 E3.19976
G1 X102.347 Y85.064 E3.21969
G1 X102.824 Y85.057 E3.24093
G1 X103.269 Y85.146 E3.26113
G0 X103.578 Y85.476
G1 X104.371 Y86.269 E3.31106
G1 X104.441 Y86.339
G0 X104.626 Y87.09
G1 X102.773 Y85.237 E3.42773
G0 X102.242 Y85.272
G1 X104.652 Y87.681 E3.57944
G0 X104.652 Y88.247
G1 X101.81 Y85.405 E3.75839
G0 X101.446 Y85.607
G1 X104.652 Y88.813 E3.96025
G0 X104.652 Y89.379
G1 X101.14 Y85.866 E4.18141
G0 X100.892 Y86.184
G1 X104.652 Y89.944 E4.41815
G0 X104.652 Y90.51
G1 X100.706 Y86.564 E4.6666
G0 X100.595 Y87.019
G1 X104.652 Y91.076 E4.92205
G0 X104.615 Y91.604
G1 X100.566 Y87.556 E5.17696
G0 X100.566 Y88.121
G1 X104.492 Y92.047 E5.42415
G0 X104.294 Y92.415
G1 X100.566 Y88.687 E5.65888
G0 X100.566 Y89.253
G1 X104.037 Y92.723 E5.8774
G0 X103.721 Y92.973
G1 X100.566 Y89.818 E6.07605
G0 X100.566 Y90.384
G1 X103.347 Y93.165 E6.25115
G0 X102.903 Y93.287
G1 X100.566 Y90.95 E6.39829
G0 X100.605 Y91.554
G1 X102.342 Y93.291 E6.50766
G1 X102.412 Y93.361
G0 X101.37 Y92.884
G1 X100.969 Y92.484 E6.53288
G1 F1800 E1.53288
G0 F3600 X101.29 Y85.037
G0 X100.444 Y83.222
G0 X100.963 Y82.871
G0 X100.998 Y82.964
;TYPE:WALL-INNER
G1 F1800 E6.53288
G1 F3600 X100.381 Y83.252 E6.56319
G1 X99.813 Y83.624 E6.59342
G1 X99.304 Y84.079 E6.62382
G1 X98.869 Y84.602 E6.65411
G1 X98.516 Y85.184 E6.68441
G1 X98.255 Y85.813 E6.71473
G1 X98.087 Y86.473 E6.74505
G1 X98.021 Y87.136 E6.77472
G1 X98.019 Y91.301 E6.96015
G1 X98.062 Y91.907 E6.9872
G1 X98.188 Y92.515 E7.01484
G1 X98.419 Y93.153 E7.04505
G1 X98.742 Y93.753 E7.07539
G1 X99.151 Y94.298 E7.10573
G1 X99.635 Y94.777 E7.13605
G1 X100.185 Y95.177 E7.16632
G1 X100.788 Y95.494 E7.19665
G1 X101.431 Y95.717 E7.22695
G1 X102.1 Y95.843 E7.25726
G1 X102.779 Y95.868 E7.28751
G1 X103.456 Y95.792 E7.31785
G1 X104.114 Y95.617 E7.34816
G1 X104.739 Y95.347 E7.37847
G1 X105.318 Y94.987 E7.40883
G1 X105.836 Y94.546 E7.43911
G1 X106.283 Y94.032 E7.46944
G1 X106.65 Y93.46 E7.4997
G1 X106.929 Y92.837 E7.53009
G1 X107.112 Y92.182 E7.56037
G1 X107.194 Y91.521 E7.59002
G1 X107.2 Y91.288 E7.6004
G1 X107.201 Y87.241 E7.78058
G1 X107.151 Y86.585 E7.80987
G1 X107.001 Y85.921 E7.84018
G1 X106.754 Y85.287 E7.87047
G1 X106.416 Y84.696 E7.90079
G1 X105.995 Y84.161 E7.9311
G1 X105.497 Y83.695 E7.96146
G1 X104.938 Y83.308 E7.99173
G1 X104.327 Y83.005 E8.02209
G1 X103.678 Y82.799 E8.05241
G1 X103.006 Y82.689 E8.08273
G1 X102.328 Y82.682 E8.11291
G1 X101.653 Y82.774 E8.14325
G1 X100.998 Y82.964 E8.17361
G0 X100.963 Y82.871
G0 X99.789 Y83.593
G0 X99.276 Y84.052
G0 X98.837 Y84.579
G0 X98.481 Y85.166
G0 X98.218 Y85.801
G0 X98.048 Y86.467
G0 X97.982 Y87.135
G0 X98.018 Y91.434
G0 X100.7 Y127.461
G0 X100.738 Y127.553
G1 X96.256 Y132.039 E8.45594
G1 X96.167 Y132.128 E8.46154
G1 X96.09 Y132.174 E8.46554
G1 X96.082 Y132.174 E8.46589
G1 X96.021 Y132.146 E8.46888
G1 X95.932 Y132.057 E8.47448
G1 X91.429 Y127.553 E8.75804
G1 X58.571 Y127.552 E10.22094
G1 X54.087 Y132.039 E10.50337
G1 X53.996 Y132.13 E10.5091
G1 X53.923 Y132.173 E10.51287
G1 X53.91 Y132.174 E10.51345
G1 X53.855 Y132.15 E10.51612
G1 X53.764 Y132.059 E10.52185
G1 X52.981 Y131.273 E10.57125
G1 X49.261 Y127.552 E10.8055
G1 X43.395 Y127.552 E11.06667
G1 X42.984 Y127.515 E11.08504
G1 X42.574 Y127.395 E11.10406
G1 X42.207 Y127.201 E11.12254
G1 X41.87 Y126.931 E11.14177
G1 X41.603 Y126.608 E11.16043
G1 X41.405 Y126.24 E11.17903
G1 X41.281 Y125.836 E11.19785
G1 X41.237 Y125.387 E11.21793
G1 X41.237 Y41.335 E14.9601
G1 X41.238 Y10.33 E16.3405
G1 X41.293 Y9.886 E16.36042
G1 X41.427 Y9.483 E16.37933
G1 X41.635 Y9.119 E16.398
G1 X41.912 Y8.802 E16.41674
G1 X42.243 Y8.547 E16.43534
G1 X42.625 Y8.359 E16.4543
G1 X43.037 Y8.25 E16.47327
G1 X43.399 Y8.22 E16.48944
G1 X106.605 Y8.221 E19.3035
G1 X107.016 Y8.258 E19.32187
G1 X107.426 Y8.378 E19.34089
G1 X107.793 Y8.572 E19.35938
G1 X108.13 Y8.842 E19.3786
G1 X108.397 Y9.165 E19.39726
G1 X108.595 Y9.533 E19.41586
G1 X108.719 Y9.937 E19.43468
G1 X108.763 Y10.386 E19.45476
G1 X108.763 Y94.438 E23.19693
G1 X108.762 Y125.443 E24.57733
G1 X108.707 Y125.888 E24.5973
G1 X108.573 Y126.29 E24.61616
G1 X108.365 Y126.654 E24.63483
G1 X108.088 Y126.971 E24.65357
G1 X107.758 Y127.225 E24.67211
G1 X107.371 Y127.416 E24.69133
G1 X106.964 Y127.525 E24.71009
G1 X106.605 Y127.553 E24.72612
G1 X100.738 Y127.553 E24.98733
G0 X100.904 Y127.953
;TYPE:WALL-OUTER
G1 X96.415 Y132.446 E25.2701
G1 X96.208 Y132.569 E25.28082
G1 X96.004 Y132.579 E25.28991
G1 X95.795 Y132.482 E25.30017
G1 X95.766 Y132.457 E25.30187
G1 X91.263 Y127.953 E25.58543
G1 X58.737 Y127.952 E27.03355
G1 X54.244 Y132.448 E27.31654
G1 X54.043 Y132.567 E27.32694
G1 X53.834 Y132.578 E27.33626
G1 X53.637 Y132.491 E27.34585
G1 X53.602 Y132.462 E27.34787
G1 X52.698 Y131.555 E27.40489
G1 X49.095 Y127.952 E27.63175
G1 X43.381 Y127.952 E27.88614
G1 X42.906 Y127.909 E27.90738
G1 X42.425 Y127.768 E27.92969
G1 X41.984 Y127.536 E27.95188
G1 X41.59 Y127.219 E27.97439
G1 X41.271 Y126.834 E27.99666
G1 X41.034 Y126.393 E28.01895
G1 X40.887 Y125.915 E28.04121
G1 X40.837 Y125.406 E28.06398
G1 X40.837 Y41.335 E31.80699
G1 X40.838 Y10.305 E33.18851
G1 X40.901 Y9.796 E33.21134
G1 X41.059 Y9.32 E33.23367
G1 X41.307 Y8.887 E33.25589
G1 X41.638 Y8.508 E33.27829
G1 X42.03 Y8.206 E33.30032
G1 X42.486 Y7.982 E33.32294
G1 X42.969 Y7.854 E33.34519
G1 X43.378 Y7.82 E33.36346
G1 X106.619 Y7.821 E36.17908
G1 X107.094 Y7.864 E36.20031
G1 X107.575 Y8.005 E36.22263
G1 X108.016 Y8.237 E36.24482
G1 X108.41 Y8.554 E36.26733
G1 X108.729 Y8.939 E36.28959
G1 X108.966 Y9.38 E36.31188
G1 X109.113 Y9.858 E36.33415
G1 X109.163 Y10.367 E36.35692
G1 X109.163 Y94.438 E40.09993
G1 X109.162 Y125.468 E41.48144
G1 X109.099 Y125.978 E41.50432
G1 X108.941 Y126.453 E41.52661
G1 X108.693 Y126.886 E41.54883
G1 X108.362 Y127.265 E41.57123
G1 X107.97 Y127.567 E41.59326
G1 X107.515 Y127.791 E41.61584
G1 X107.03 Y127.921 E41.6382
G1 X106.623 Y127.953 E41.65637
G1 X100.904 Y127.953 E41.91099
G0 X100.763 Y128.094
G0 X100.41 Y127.741
G0 X107.151 Y92.189
G0 X107.239 Y91.288
G0 X107.24 Y87.24
G0 X107.19 Y86.58
G0 X107.039 Y85.91
G0 X106.79 Y85.27
G0 X106.449 Y84.674
G0 X106.024 Y84.134
G0 X105.619 Y83.754
G0 X104.328 Y82.901
G0 X104.177 Y83.377
G1 X103.585 Y83.189 E41.93865
G1 X102.971 Y83.089 E41.96634
G1 X102.353 Y83.082 E41.99386
G1 X101.736 Y83.166 E42.02158
G1 X101.139 Y83.34 E42.04927
G1 X100.576 Y83.602 E42.07692
G1 X100.057 Y83.942 E42.10454
G1 X99.593 Y84.357 E42.13226
G1 X99.196 Y84.835 E42.15992
G1 X98.874 Y85.366 E42.18757
G1 X98.635 Y85.94 E42.21525
G1 X98.482 Y86.542 E42.24291
G1 X98.421 Y87.156 E42.27038
G1 X98.419 Y91.287 E42.4543
G1 X98.459 Y91.852 E42.47952
G1 X98.574 Y92.406 E42.50471
G1 X98.785 Y92.989 E42.53231
G1 X99.08 Y93.537 E42.56002
G1 X99.453 Y94.034 E42.58769
G1 X99.895 Y94.471 E42.61536
G1 X100.397 Y94.837 E42.64302
G1 X100.947 Y95.126 E42.67068
G1 X101.534 Y95.329 E42.69833
G1 X102.145 Y95.444 E42.72601
G1 X102.764 Y95.467 E42.75359
G1 X103.382 Y95.398 E42.78128
G1 X103.983 Y95.238 E42.80897
G1 X104.553 Y94.992 E42.83661
G1 X105.081 Y94.663 E42.8643
G1 X105.554 Y94.261 E42.89194
G1 X105.962 Y93.792 E42.91962
G1 X106.297 Y93.269 E42.94727
G1 X106.552 Y92.701 E42.97499
G1 X106.719 Y92.103 E43.00263
G1 X106.795 Y91.491 E43.03009
G1 X106.8 Y91.283 E43.03935
G1 X106.801 Y87.256 E43.21864
G1 X106.754 Y86.645 E43.24593
G1 X106.617 Y86.038 E43.27363
G1 X106.392 Y85.46 E43.30125
G1 X106.083 Y84.92 E43.32895
G1 X105.699 Y84.432 E43.35659
G1 X105.245 Y84.007 E43.38428
G1 X104.734 Y83.653 E43.41196
G1 X104.177 Y83.377 E43.43963
G0 X103.987 Y83.317
G0 X104.473 Y82.642
;TYPE:SKIN
G1 X103.769 Y82.419 E43.47251
G1 X103.039 Y82.299 E43.50545
G1 X102.303 Y82.292 E43.53822
G1 X101.572 Y82.392 E43.57107
G1 X100.86 Y82.598 E43.60407
G1 X100.19 Y82.911 E43.63699
G1 X99.575 Y83.314 E43.66973
G1 X99.023 Y83.808 E43.70271
G1 X98.551 Y84.375 E43.73555
G1 X98.167 Y85.007 E43.76848
G1 X97.884 Y85.69 E43.80139
G1 X97.701 Y86.405 E43.83425
G1 X97.631 Y87.117 E43.86611
G1 X97.629 Y91.315 E44.05301
G1 X97.674 Y91.96 E44.0818
G1 X97.812 Y92.622 E44.1119
G1 X98.062 Y93.313 E44.14462
G1 X98.412 Y93.964 E44.17753
G1 X98.856 Y94.555 E44.21044
G1 X99.382 Y95.075 E44.24337
G1 X99.978 Y95.509 E44.27619
G1 X100.632 Y95.853 E44.30909
G1 X101.33 Y96.095 E44.34198
G1 X102.057 Y96.231 E44.37491
G1 X102.794 Y96.258 E44.40775
G1 X103.528 Y96.176 E44.44063
G1 X104.242 Y95.986 E44.47352
G1 X104.92 Y95.694 E44.50639
G1 X105.548 Y95.303 E44.53933
G1 X106.111 Y94.824 E44.57224
G1 X106.596 Y94.266 E44.60515
G1 X106.994 Y93.646 E44.63796
G1 X107.297 Y92.97 E44.67094
G1 X107.496 Y92.258 E44.70385
G1 X107.584 Y91.55 E44.73562
G1 X107.59 Y91.293 E44.74706
G1 X107.591 Y87.226 E44.92813
G1 X107.537 Y86.527 E44.95935
G1 X107.375 Y85.806 E44.99225
G1 X107.107 Y85.119 E45.02508
G1 X106.74 Y84.478 E45.05796
G1 X106.283 Y83.896 E45.09091
G1 X105.743 Y83.391 E45.12383
G1 X105.137 Y82.971 E45.15665
G1 X104.473 Y82.642 E45.18964
G0 X106.024 Y84.134
G0 X106.449 Y84.674
G0 X106.79 Y85.27
G0 X107.039 Y85.91
G0 X108.373 Y94.438
G1 X108.372 Y125.419 E46.56898
G1 X108.325 Y125.802 E46.58616
G1 X108.215 Y126.129 E46.60152
G1 X108.047 Y126.425 E46.61667
G1 X107.818 Y126.687 E46.63217
G1 X107.549 Y126.894 E46.64728
G1 X107.237 Y127.048 E46.66277
G1 X106.892 Y127.14 E46.67867
G1 X106.6 Y127.163 E46.69171
G1 X100.576 Y127.163 E46.95991
G1 X96.085 Y131.66 E47.24287
G1 X91.591 Y127.163 E47.52592
G1 X58.409 Y127.162 E49.00325
G1 X53.917 Y131.659 E49.28624
G1 X53.258 Y130.998 E49.3278
G1 X49.423 Y127.162 E49.56929
G1 X43.408 Y127.162 E49.83709
G1 X43.056 Y127.131 E49.85282
G1 X42.723 Y127.033 E49.86828
G1 X42.421 Y126.873 E49.8835
G1 X42.143 Y126.65 E49.89936
G1 X41.929 Y126.392 E49.91429
G1 X41.768 Y126.092 E49.92945
G1 X41.665 Y125.757 E49.94505
G1 X41.627 Y125.369 E49.96241
G1 X41.627 Y41.335 E53.70377
G1 X41.628 Y10.354 E55.08311
G1 X41.675 Y9.972 E55.10024
G1 X41.785 Y9.644 E55.11564
G1 X41.953 Y9.348 E55.1308
G1 X42.182 Y9.086 E55.14629
G1 X42.454 Y8.877 E55.16156
G1 X42.758 Y8.727 E55.17665
G1 X43.105 Y8.635 E55.19264
G1 X43.408 Y8.61 E55.20617
G1 X106.592 Y8.611 E58.01925
G1 X106.944 Y8.642 E58.03498
G1 X107.277 Y8.74 E58.05044
G1 X107.579 Y8.9 E58.06566
G1 X107.857 Y9.123 E58.08152
G1 X108.071 Y9.381 E58.09645
G1 X108.232 Y9.681 E58.11161
G1 X108.335 Y10.016 E58.12721
G1 X108.373 Y10.404 E58.14457
G1 X108.373 Y94.438 E61.88593
G0 X43.245 Y126.966
G1 X41.824 Y125.546 E61.97537
G0 X41.806 Y124.962
G1 X43.825 Y126.981 E62.10249
G0 X44.391 Y126.981
G1 X41.806 Y124.396 E62.26525
G0 X41.806 Y123.83
G1 X44.957 Y126.981 E62.46365
G0 X45.522 Y126.981
G1 X41.806 Y123.264 E62.69766
G0 X41.806 Y122.699
G1 X46.088 Y126.981 E62.96727
G0 X46.654 Y126.981
G1 X41.806 Y122.133 E63.27251
G0 X41.806 Y121.567
G1 X47.219 Y126.981 E63.61337
G0 X47.785 Y126.981
G1 X41.806 Y121.002 E63.98983
G0 X41.806 Y120.436
G1 X48.351 Y126.981 E64.40192
G0 X48.916 Y126.981
G1 X41.806 Y119.87 E64.84963
G0 X41.806 Y119.305
G1 X49.482 Y126.981 E65.33294
G1 X49.552 Y127.051
G0 X54.194 Y131.127
G1 X41.806 Y118.739 E66.11293
G0 X41.806 Y118.173
G1 X54.476 Y130.844 E66.91071
G0 X54.759 Y130.561
G1 X41.806 Y117.608 E67.72628
G0 X41.806 Y117.042
G1 X55.041 Y130.278 E68.55963
G0 X55.324 Y129.995
G1 X41.806 Y116.476 E69.41081
G0 X41.806 Y115.911
G1 X55.607 Y129.712 E70.27977
G0 X55.89 Y129.429
G1 X41.806 Y115.345 E71.16655
G0 X41.806 Y114.779
G1 X56.172 Y129.145 E72.07109
G0 X56.455 Y128.863
G1 X41.806 Y114.214 E72.99344
G0 X41.806 Y113.648
G1 X56.738 Y128.58 E73.93361
G0 X57.021 Y128.297
G1 X41.806 Y113.082 E74.8916
G0 X41.806 Y112.516
G1 X57.303 Y128.013 E75.86735
G0 X57.586 Y127.731
G1 X41.806 Y111.951 E76.86092
G0 X41.806 Y111.385
G1 X57.868 Y127.448 E77.87227
G0 X58.151 Y127.165
G1 X41.806 Y110.819 E78.90144
G0 X41.806 Y110.254
G1 X58.533 Y126.981 E79.95464
G0 X59.099 Y126.981
G1 X41.806 Y109.688 E81.04347
G0 X41.806 Y109.122
G1 X59.664 Y126.981 E82.1679
