;FLAVOR:Marlin
;TIME:3464
;Filament used: 5.66118m
;Layer height: 0.2
;MINX:40.361
;MINY:7.345
;MINZ:0.3
;MAXX:110.504
;MAXY:132.651
;MAXZ:12.7
;Generated with Cura_SteamEngine 4.7.1
M140 S70
M105
M190 S70
M104 S250
M105
M109 S250
M82 ;absolute extrusion mode
M82 ;absolute extrusion mode
G21       ;metric values
G90       ;absolute positioning
M82       ;set extruder to absolute mode
M106      ;start with the fan on
G28 X0 Y0 ;home X/Y
G28 Z0    ;home Z
G92 E0    ;zero the extruded length
G29       ;initiate auto bed leveling sequence
G1 X150 Y145 Z15 F4000
G1 X150 Y145 Z0.30 F1000
G1 X1 Y150 Z0.25 E15.0 F2000
G1 X1 Y150 Z0.25 E14.0 F4000
G1 X1 Y1 Z0.25 F16000
G1 X1 Y1 Z0.25 E15.0 F4000
G92 E0
M107      ;start with the fan off
G92 E0
G92 E0
G92 E0
G1 F1800 E-5
;LAYER_COUNT:63
;LAYER:0
M107
;MESH:M5Paper_OuterCover.stl
G0 F3600 X106.528 Y60.058 Z0.3
;TYPE:WALL-INNER
G1 F1800 E0
G1 F3600 X106.528 Y76.318 E0.72393
G1 X108.762 Y76.318 E0.82339
G1 X108.762 Y125.443 E3.01053
G1 X108.707 Y125.888 E3.0305
G1 X108.573 Y126.29 E3.04936
G1 X108.365 Y126.654 E3.06803
G1 X108.088 Y126.971 E3.08677
G1 X107.758 Y127.225 E3.10531
G1 X107.371 Y127.416 E3.12453
G1 X106.964 Y127.525 E3.14328
G1 X106.605 Y127.553 E3.15932
G1 X100.738 Y127.553 E3.42053
G1 X96.256 Y132.039 E3.70286
G1 X96.167 Y132.128 E3.70846
G1 X96.09 Y132.174 E3.71245
G1 X96.082 Y132.174 E3.71281
G1 X96.021 Y132.146 E3.7158
G1 X95.932 Y132.057 E3.7214
G1 X91.431 Y127.553 E4.0049
G1 X58.571 Y127.552 E5.46789
G1 X54.087 Y132.039 E5.75031
G1 X53.996 Y132.13 E5.75604
G1 X53.923 Y132.173 E5.75981
G1 X53.91 Y132.174 E5.76039
G1 X53.855 Y132.15 E5.76307
G1 X53.764 Y132.059 E5.7688
G1 X52.981 Y131.273 E5.81819
G1 X49.261 Y127.552 E6.05245
G1 X43.395 Y127.552 E6.31361
G1 X42.984 Y127.515 E6.33199
G1 X42.574 Y127.395 E6.35101
G1 X42.207 Y127.201 E6.36949
G1 X41.87 Y126.931 E6.38871
G1 X41.603 Y126.608 E6.40737
G1 X41.405 Y126.24 E6.42598
G1 X41.281 Y125.836 E6.44479
G1 X41.237 Y125.387 E6.46488
G1 X41.237 Y41.335 E10.20704
G1 X41.238 Y10.33 E11.58745
G1 X41.293 Y9.886 E11.60737
G1 X41.427 Y9.483 E11.62627
G1 X41.635 Y9.119 E11.64494
G1 X41.912 Y8.802 E11.66368
G1 X42.243 Y8.547 E11.68228
G1 X42.625 Y8.359 E11.70124
G1 X43.037 Y8.25 E11.72021
G1 X43.399 Y8.22 E11.73639
G1 X106.605 Y8.221 E14.55045
G1 X107.016 Y8.258 E14.56882
G1 X107.426 Y8.378 E14.58784
G1 X107.793 Y8.572 E14.60632
G1 X108.13 Y8.842 E14.62555
G1 X108.397 Y9.165 E14.6442
G1 X108.595 Y9.533 E14.66281
G1 X108.719 Y9.937 E14.68162
G1 X108.763 Y10.386 E14.70171
G1 X108.762 Y60.058 E16.91321
G1 X106.528 Y60.058 E17.01267
G0 X106.458 Y59.988
G0 X100.963 Y82.871
G0 X100.998 Y82.964
G1 X100.381 Y83.252 E17.04298
G1 X99.813 Y83.624 E17.07321
G1 X99.304 Y84.079 E17.10361
G1 X98.869 Y84.602 E17.1339
G1 X98.516 Y85.184 E17.1642
G1 X98.255 Y85.813 E17.19452
G1 X98.087 Y86.473 E17.22484
G1 X98.021 Y87.136 E17.25451
G1 X98.019 Y91.301 E17.43994
G1 X98.062 Y91.907 E17.46699
G1 X98.188 Y92.515 E17.49463
G1 X98.419 Y93.153 E17.52484
G1 X98.742 Y93.753 E17.55518
G1 X99.151 Y94.298 E17.58552
G1 X99.635 Y94.777 E17.61584
G1 X100.185 Y95.177 E17.64611
G1 X100.788 Y95.494 E17.67645
G1 X101.431 Y95.717 E17.70675
G1 X102.1 Y95.843 E17.73705
G1 X102.779 Y95.868 E17.76731
G1 X103.456 Y95.792 E17.79764
G1 X104.114 Y95.617 E17.82795
G1 X104.739 Y95.347 E17.85826
G1 X105.318 Y94.987 E17.88862
G1 X105.836 Y94.546 E17.9189
G1 X106.283 Y94.032 E17.94923
G1 X106.65 Y93.46 E17.97949
G1 X106.929 Y92.837 E18.00988
G1 X107.112 Y92.182 E18.04016
G1 X107.194 Y91.521 E18.06981
G1 X107.2 Y91.288 E18.08019
G1 X107.201 Y87.241 E18.26037
G1 X107.151 Y86.585 E18.28966
G1 X107.001 Y85.921 E18.31997
G1 X106.754 Y85.287 E18.35026
G1 X106.416 Y84.696 E18.38058
G1 X105.995 Y84.161 E18.41089
G1 X105.497 Y83.695 E18.44125
G1 X104.938 Y83.308 E18.47152
G1 X104.327 Y83.005 E18.50189
G1 X103.678 Y82.799 E18.5322
G1 X103.006 Y82.689 E18.56252
G1 X102.328 Y82.682 E18.59271
G1 X101.653 Y82.774 E18.62304
G1 X100.998 Y82.964 E18.6534
G0 X100.963 Y82.871
G0 X102.326 Y82.643
G0 X102.878 Y82.648
G0 X104.328 Y82.901
G0 X104.177 Y83.377
;TYPE:WALL-OUTER
G1 X103.585 Y83.189 E18.68105
G1 X102.971 Y83.089 E18.70875
G1 X102.353 Y83.082 E18.73627
G1 X101.736 Y83.166 E18.76399
G1 X101.139 Y83.34 E18.79168
G1 X100.576 Y83.602 E18.81932
G1 X100.057 Y83.942 E18.84695
G1 X99.593 Y84.357 E18.87466
G1 X99.196 Y84.835 E18.90233
G1 X98.874 Y85.366 E18.92998
G1 X98.635 Y85.94 E18.95766
G1 X98.482 Y86.542 E18.98531
G1 X98.421 Y87.156 E19.01278
G1 X98.419 Y91.287 E19.1967
G1 X98.459 Y91.852 E19.22192
G1 X98.574 Y92.406 E19.24711
G1 X98.785 Y92.989 E19.27472
G1 X99.08 Y93.537 E19.30243
G1 X99.453 Y94.034 E19.33009
G1 X99.895 Y94.471 E19.35776
G1 X100.397 Y94.837 E19.38542
G1 X100.947 Y95.126 E19.41309
G1 X101.534 Y95.329 E19.44074
G1 X102.145 Y95.444 E19.46842
G1 X102.764 Y95.467 E19.496
G1 X103.382 Y95.398 E19.52368
G1 X103.983 Y95.238 E19.55137
G1 X104.553 Y94.992 E19.57901
G1 X105.081 Y94.663 E19.60671
G1 X105.554 Y94.261 E19.63435
G1 X105.962 Y93.792 E19.66202
G1 X106.297 Y93.269 E19.68968
G1 X106.552 Y92.701 E19.7174
G1 X106.719 Y92.103 E19.74504
G1 X106.795 Y91.491 E19.7725
G1 X106.8 Y91.283 E19.78176
G1 X106.801 Y87.256 E19.96105
G1 X106.754 Y86.645 E19.98833
G1 X106.617 Y86.038 E20.01604
G1 X106.392 Y85.46 E20.04365
G1 X106.083 Y84.92 E20.07135
G1 X105.699 Y84.432 E20.099
G1 X105.245 Y84.007 E20.12669
G1 X104.734 Y83.653 E20.15436
G1 X104.177 Y83.377 E20.18204
G0 X103.987 Y83.317
G0 X104.139 Y82.841
G0 X106.428 Y60.458
G0 X106.928 Y60.458
G1 X106.928 Y75.918 E20.87035
G1 X109.162 Y75.918 E20.96981
G1 X109.162 Y125.468 E23.17588
G1 X109.099 Y125.978 E23.19876
G1 X108.941 Y126.453 E23.22104
G1 X108.693 Y126.886 E23.24326
G1 X108.362 Y127.265 E23.26566
G1 X107.97 Y127.567 E23.28769
G1 X107.515 Y127.791 E23.31027
G1 X107.03 Y127.921 E23.33263
G1 X106.623 Y127.953 E23.35081
G1 X100.904 Y127.953 E23.60543
G1 X96.415 Y132.446 E23.8882
G1 X96.208 Y132.569 E23.89892
G1 X96.004 Y132.579 E23.90801
G1 X95.795 Y132.482 E23.91827
G1 X95.766 Y132.457 E23.91997
G1 X91.265 Y127.953 E24.20347
G1 X58.737 Y127.952 E25.65168
G1 X54.244 Y132.448 E25.93467
G1 X54.043 Y132.567 E25.94507
G1 X53.834 Y132.578 E25.95439
G1 X53.637 Y132.491 E25.96398
G1 X53.602 Y132.462 E25.966
G1 X52.698 Y131.555 E26.02301
G1 X49.095 Y127.952 E26.24987
G1 X43.381 Y127.952 E26.50427
G1 X42.906 Y127.909 E26.5255
G1 X42.425 Y127.768 E26.54782
G1 X41.984 Y127.536 E26.57001
G1 X41.59 Y127.219 E26.59252
G1 X41.271 Y126.834 E26.61478
G1 X41.034 Y126.393 E26.63707
G1 X40.887 Y125.915 E26.65934
G1 X40.837 Y125.406 E26.68211
G1 X40.837 Y41.335 E30.42512
G1 X40.838 Y10.305 E31.80663
G1 X40.901 Y9.796 E31.82947
G1 X41.059 Y9.32 E31.8518
G1 X41.307 Y8.887 E31.87401
G1 X41.638 Y8.508 E31.89642
G1 X42.03 Y8.206 E31.91845
G1 X42.486 Y7.982 E31.94107
G1 X42.969 Y7.854 E31.96331
G1 X43.378 Y7.82 E31.98159
G1 X106.619 Y7.821 E34.7972
G1 X107.094 Y7.864 E34.81844
G1 X107.575 Y8.005 E34.84075
G1 X108.016 Y8.237 E34.86294
G1 X108.41 Y8.554 E34.88545
G1 X108.729 Y8.939 E34.90772
G1 X108.966 Y9.38 E34.93001
G1 X109.113 Y9.858 E34.95227
G1 X109.163 Y10.367 E34.97504
G1 X109.162 Y60.458 E37.20519
G1 X106.928 Y60.458 E37.30466
G0 X106.928 Y60.658
G0 X106.428 Y60.658
G0 X106.138 Y59.668
;TYPE:SKIN
G1 X106.138 Y76.708 E38.06331
G1 X108.372 Y76.708 E38.16277
G1 X108.372 Y125.419 E40.33148
G1 X108.325 Y125.802 E40.34866
G1 X108.215 Y126.129 E40.36402
G1 X108.047 Y126.425 E40.37918
G1 X107.818 Y126.687 E40.39467
G1 X107.549 Y126.894 E40.40978
G1 X107.237 Y127.048 E40.42527
G1 X106.892 Y127.14 E40.44117
G1 X106.6 Y127.163 E40.45421
G1 X100.576 Y127.163 E40.72241
G1 X96.085 Y131.66 E41.00537
G1 X91.593 Y127.163 E41.28836
G1 X58.409 Y127.162 E42.76578
G1 X53.917 Y131.659 E43.04877
G1 X53.258 Y130.998 E43.09033
G1 X49.423 Y127.162 E43.33182
G1 X43.408 Y127.162 E43.59962
G1 X43.056 Y127.131 E43.61535
G1 X42.723 Y127.033 E43.63081
G1 X42.421 Y126.873 E43.64603
G1 X42.143 Y126.65 E43.66189
G1 X41.929 Y126.392 E43.67682
G1 X41.768 Y126.092 E43.69197
G1 X41.665 Y125.757 E43.70758
G1 X41.627 Y125.369 E43.72494
G1 X41.627 Y41.335 E47.4663
G1 X41.628 Y10.354 E48.84564
G1 X41.675 Y9.972 E48.86277
G1 X41.785 Y9.644 E48.87817
G1 X41.953 Y9.348 E48.89333
G1 X42.182 Y9.086 E48.90882
G1 X42.454 Y8.877 E48.92409
G1 X42.758 Y8.727 E48.93918
G1 X43.105 Y8.635 E48.95517
G1 X43.408 Y8.61 E48.9687
G1 X106.592 Y8.611 E51.78178
G1 X106.944 Y8.642 E51.79751
G1 X107.277 Y8.74 E51.81297
G1 X107.579 Y8.9 E51.82819
G1 X107.857 Y9.123 E51.84405
G1 X108.071 Y9.381 E51.85898
G1 X108.232 Y9.681 E51.87413
G1 X108.335 Y10.016 E51.88974
G1 X108.373 Y10.404 E51.9071
G1 X108.372 Y59.668 E54.10043
G1 X106.138 Y59.668 E54.19989
G0 X103.039 Y82.299
G1 X102.303 Y82.292 E54.23266
G1 X101.572 Y82.392 E54.26551
G1 X100.86 Y82.598 E54.29851
G1 X100.19 Y82.911 E54.33143
G1 X99.575 Y83.314 E54.36417
G1 X99.023 Y83.808 E54.39715
G1 X98.551 Y84.375 E54.43
G1 X98.167 Y85.007 E54.46292
G1 X97.884 Y85.69 E54.49584
G1 X97.701 Y86.405 E54.5287
G1 X97.631 Y87.117 E54.56055
G1 X97.629 Y91.315 E54.74745
G1 X97.674 Y91.96 E54.77624
G1 X97.812 Y92.622 E54.80634
G1 X98.062 Y93.313 E54.83906
G1 X98.412 Y93.964 E54.87197
G1 X98.856 Y94.555 E54.90488
G1 X99.382 Y95.075 E54.93781
G1 X99.978 Y95.509 E54.97063
G1 X100.632 Y95.853 E55.00353
G1 X101.33 Y96.095 E55.03643
G1 X102.057 Y96.231 E55.06935
G1 X102.794 Y96.258 E55.10219
G1 X103.528 Y96.176 E55.13507
G1 X104.242 Y95.986 E55.16797
G1 X104.92 Y95.694 E55.20083
G1 X105.548 Y95.303 E55.23377
G1 X106.111 Y94.824 E55.26668
G1 X106.596 Y94.266 E55.2996
G1 X106.994 Y93.646 E55.3324
G1 X107.297 Y92.97 E55.36538
G1 X107.496 Y92.258 E55.39829
G1 X107.584 Y91.55 E55.43006
G1 X107.59 Y91.293 E55.4415
G1 X107.591 Y87.226 E55.62257
G1 X107.537 Y86.527 E55.65379
G1 X107.375 Y85.806 E55.68669
G1 X107.107 Y85.119 E55.71952
G1 X106.74 Y84.478 E55.75241
G1 X106.283 Y83.896 E55.78535
G1 X105.743 Y83.391 E55.81827
G1 X105.137 Y82.971 E55.85109
G1 X104.473 Y82.642 E55.88409
G1 X103.769 Y82.419 E55.91697
G1 X103.039 Y82.299 E55.9499
G0 X107.48 Y9.051
G1 X107.931 Y9.502 E55.9783
G0 X108.183 Y10.32
G1 X106.661 Y8.797 E56.07416
G0 X106.088 Y8.79
G1 X108.192 Y10.894 E56.20664
G0 X108.192 Y11.46
G1 X105.522 Y8.79 E56.37475
G0 X104.957 Y8.79
G1 X108.192 Y12.025 E56.57844
G0 X108.192 Y12.591
G1 X104.391 Y8.79 E56.81776
G0 X103.825 Y8.79
G1 X108.192 Y13.157 E57.09272
G0 X108.192 Y13.722
G1 X103.26 Y8.79 E57.40326
G0 X102.694 Y8.79
G1 X108.192 Y14.288 E57.74943
G0 X108.192 Y14.854
G1 X102.128 Y8.79 E58.13125
G0 X101.563 Y8.79
G1 X108.192 Y15.419 E58.54863
G0 X108.192 Y15.985
G1 X100.997 Y8.79 E59.00166
G0 X100.431 Y8.79
G1 X108.192 Y16.551 E59.49032
G0 X108.192 Y17.116
G1 X99.866 Y8.79 E60.01455
G0 X99.3 Y8.79
G1 X108.192 Y17.682 E60.57442
G0 X108.192 Y18.248
G1 X98.734 Y8.79 E61.16993
G0 X98.169 Y8.79
G1 X108.192 Y18.813 E61.80102
G0 X108.192 Y19.379
G1 X97.603 Y8.79 E62.46774
G0 X97.037 Y8.79
G1 X108.192 Y19.945 E63.1701
G0 X108.192 Y20.511
G1 X96.471 Y8.79 E63.9081
G0 X95.906 Y8.79
G1 X108.192 Y21.076 E64.68167
G0 X108.192 Y21.642
G1 X95.34 Y8.79 E65.49088
G0 X94.774 Y8.79
G1 X108.192 Y22.208 E66.33572
G0 X108.192 Y22.773
G1 X94.209 Y8.79 E67.21614
G0 X93.643 Y8.79
G1 X108.192 Y23.339 E68.1322
G0 X108.192 Y23.905
G1 X93.077 Y8.79 E69.0839
G0 X92.512 Y8.79
G1 X108.192 Y24.47 E70.07117
G0 X108.192 Y25.036
G1 X91.946 Y8.79 E71.09407
G0 X91.38 Y8.79
G1 X108.192 Y25.602 E72.15262
G0 X108.192 Y26.167
G1 X90.815 Y8.79 E73.24674
G0 X90.249 Y8.79
G1 X108.192 Y26.733 E74.3765
G0 X108.192 Y27.299
G1 X89.683 Y8.79 E75.54189
G0 X89.118 Y8.79
G1 X108.192 Y27.864 E76.74286
G0 X108.192 Y28.43
G1 X88.552 Y8.79 E77.97946
G0 X87.986 Y8.79
G1 X108.192 Y28.996 E79.25171
G0 X108.192 Y29.562
G1 X87.421 Y8.79 E80.55956
G0 X86.855 Y8.79
G1 X108.192 Y30.127 E81.90301
G0 X108.192 Y30.693
G1 X86.289 Y8.79 E83.2821
G0 X85.723 Y8.79
G1 X108.192 Y31.259 E84.69683
G0 X108.192 Y31.824
G1 X85.158 Y8.79 E86.14714
G0 X84.592 Y8.79
G1 X108.192 Y32.39 E87.63308
G0 X108.192 Y32.956
G1 X84.026 Y8.79 E89.15466
G0 X83.461 Y8.79
G1 X108.192 Y33.521 E90.71181
G0 X108.192 Y34.087
G1 X82.895 Y8.79 E92.3046
G0 X82.329 Y8.79
G1 X108.192 Y34.653 E93.93303
G0 X108.191 Y35.218
G1 X81.764 Y8.79 E95.597
G0 X81.198 Y8.79
G1 X108.191 Y35.783 E97.29658
G0 X108.191 Y36.349
G1 X80.632 Y8.79 E99.0318
G0 X80.067 Y8.79
G1 X108.191 Y36.915 E100.80262
G0 X108.191 Y37.48
G1 X79.501 Y8.79 E102.60904
G0 X78.935 Y8.79
G1 X108.191 Y38.046 E104.45111
G0 X108.191 Y38.612
G1 X78.37 Y8.79 E106.32878
G0 X77.804 Y8.79
G1 X108.191 Y39.177 E108.24206
G0 X108.191 Y39.743
G1 X77.238 Y8.79 E110.19097
G0 X76.673 Y8.79
G1 X108.191 Y40.309 E112.17549
G0 X108.191 Y40.875
G1 X76.107 Y8.79 E114.19565
G0 X75.541 Y8.79
G1 X108.191 Y41.44 E116.25141
G0 X108.191 Y42.006
G1 X74.975 Y8.79 E118.34281
G0 X74.41 Y8.79
G1 X108.191 Y42.572 E120.46981
G0 X108.191 Y43.137
G1 X73.844 Y8.79 E122.63243
G0 X73.278 Y8.79
G1 X108.191 Y43.703 E124.83068
G0 X108.191 Y44.269
G1 X72.713 Y8.79 E127.06453
G0 X72.147 Y8.79
G1 X108.191 Y44.834 E129.33399
G0 X108.191 Y45.4
G1 X71.581 Y8.79 E131.63909
G0 X71.016 Y8.79
G1 X108.191 Y45.966 E133.9798
G0 X108.191 Y46.531
G1 X70.45 Y8.79 E136.35611
G0 X69.884 Y8.79
G1 X108.191 Y47.097 E138.76806
G0 X108.191 Y47.663
G1 X69.319 Y8.79 E141.21561
G0 X68.753 Y8.79
G1 X108.191 Y48.228 E143.69877
G0 X108.191 Y48.794
G1 X68.187 Y8.79 E146.21757
G0 X67.622 Y8.79
G1 X108.191 Y49.36 E148.77197
G0 X108.191 Y49.925
G1 X67.056 Y8.79 E151.36198
G0 X66.49 Y8.79
G1 X108.191 Y50.491 E153.98763
G0 X108.191 Y51.057
G1 X65.924 Y8.79 E156.64891
G0 X65.359 Y8.79
G1 X108.191 Y51.623 E159.3458
G0 X108.191 Y52.188
G1 X64.793 Y8.79 E162.0783
G0 X64.227 Y8.79
G1 X108.191 Y52.754 E164.84643
G0 X108.191 Y53.32
G1 X63.662 Y8.79 E167.65017
G0 X63.096 Y8.79
G1 X108.191 Y53.885 E170.48952
G0 X108.191 Y54.451
G1 X62.53 Y8.79 E173.3645
G0 X61.965 Y8.79
G1 X108.191 Y55.017 E176.27509
G0 X108.191 Y55.582
G1 X61.399 Y8.79 E179.22128
G0 X60.833 Y8.79
G1 X108.191 Y56.148 E182.20311
G0 X108.191 Y56.714
G1 X60.268 Y8.79 E185.22055
G0 X59.702 Y8.79
G1 X108.191 Y57.279 E188.2736
G0 X108.191 Y57.845
G1 X59.136 Y8.79 E191.36228
G0 X58.571 Y8.79
G1 X108.191 Y58.411 E194.48656
G0 X108.191 Y58.976
G1 X58.005 Y8.79 E197.64646
G0 X57.439 Y8.79
G1 X108.136 Y59.487 E200.83853
G0 X107.57 Y59.487
G1 X56.874 Y8.79 E204.03056
G0 X56.308 Y8.79
G1 X107.005 Y59.487 E207.22263
G0 X106.439 Y59.487
G1 X55.742 Y8.79 E210.4147
G0 X55.176 Y8.79
G1 X105.957 Y59.57 E213.61202
G0 X105.957 Y60.136
G1 X54.611 Y8.79 E216.84495
G0 X54.045 Y8.79
G1 X105.957 Y60.702 E220.11352
G0 X105.957 Y61.267
G1 X53.479 Y8.79 E223.4177
G0 X52.914 Y8.79
G1 X105.957 Y61.833 E226.75748
G0 X105.957 Y62.399
G1 X52.348 Y8.79 E230.13289
G0 X51.782 Y8.79
G1 X105.957 Y62.965 E233.54395
G0 X105.957 Y63.53
G1 X51.217 Y8.79 E236.99058
G0 X50.651 Y8.79
G1 X105.957 Y64.096 E240.47285
G0 X105.957 Y64.662
G1 X50.085 Y8.79 E243.99075
G0 X49.52 Y8.79
G1 X105.957 Y65.227 E247.54423
G0 X105.957 Y65.793
G1 X48.954 Y8.79 E251.13335
G0 X48.388 Y8.79
G1 X105.957 Y66.359 E254.7581
G0 X105.957 Y66.924
G1 X47.823 Y8.79 E258.41843
G0 X47.257 Y8.79
G1 X105.957 Y67.49 E262.11439
G0 X105.957 Y68.056
G1 X46.691 Y8.79 E265.846
G0 X46.125 Y8.79
G1 X105.957 Y68.621 E269.61321
G0 X105.957 Y69.187
G1 X45.56 Y8.79 E273.41602
G0 X44.994 Y8.79
G1 X105.957 Y69.753 E277.25447
G0 X105.957 Y70.318
G1 X44.428 Y8.79 E281.12853
G0 X43.863 Y8.79
G1 X105.957 Y70.884 E285.0382
G0 X105.957 Y71.45
G1 X43.306 Y8.799 E288.98293
G0 X42.833 Y8.892
G1 X105.957 Y72.015 E292.95742
G0 X105.957 Y72.581
