;FLAVOR:Marlin
;TIME:2005
;Filament used: 2.98036m
;Layer height: 0.2
;MINX:39.736
;MINY:6.64
;MINZ:0.3
;MAXX:109.5
;MAXY:132.489
;MAXZ:13.3
;Generated with Cura_SteamEngine 4.7.1
M140 S60
M105
M190 S60
M104 S240
M105
M109 S240
M82 ;absolute extrusion mode
M82 ;absolute extrusion mode
G21       ;metric values
G90       ;absolute positioning
M82       ;set extruder to absolute mode
M106      ;start with the fan on
G28 X0 Y0 ;home X/Y
G28 Z0    ;home Z
G92 E0    ;zero the extruded length
G29       ;initiate auto bed leveling sequence
G1 X150 Y145 Z15 F4000
G1 X150 Y145 Z0.30 F1000
G1 X1 Y150 Z0.25 E15.0 F2000
G1 X1 Y150 Z0.25 E14.0 F4000
G1 X1 Y1 Z0.25 F16000
G1 X1 Y1 Z0.25 E15.0 F4000
G92 E0
M107      ;start with the fan off
G92 E0
G92 E0
G92 E0
G1 F1800 E-5
;LAYER_COUNT:66
;LAYER:0
M107
M204 S3000
M205 X30 Y30
G0 F5400 X108.701 Y61.104 Z0.3
M204 S2000
M205 X20 Y20
;TYPE:SUPPORT
G1 F1800 E0
G1 F3600 X109.258 Y61.103 E0.01348
G1 X109.5 Y60.862 E0.02174
G1 X109.5 Y75.145 E0.36734
G1 X109.258 Y74.904 E0.37561
G1 X108.701 Y74.904 E0.38909
G1 X108.701 Y61.104 E0.723
M204 S3000
M205 X30 Y30
G1 F1800 E-4.277
G0 F5400 X108.861 Y63.47
M204 S2000
M205 X20 Y20
G1 F1800 E0.723
G1 F3600 X108.924 Y63.544 E0.72535
G1 X109.078 Y63.92 E0.73518
G1 X109.112 Y64.296 E0.74432
G1 X109.064 Y64.672 E0.75349
G1 X108.941 Y65.048 E0.76306
G1 X108.861 Y65.186 E0.76692
G1 X108.861 Y69.486 E0.87097
G1 X108.924 Y69.56 E0.87332
G1 X109.078 Y69.936 E0.88315
G1 X109.112 Y70.312 E0.89229
G1 X109.064 Y70.688 E0.90146
G1 X108.941 Y71.064 E0.91103
G1 X108.861 Y71.202 E0.91489
M204 S3000
M205 X30 Y30
G1 F1800 E-4.08511
;MESH:M5Paper_OuterCover_Reduced.stl
G0 F5400 X106.78 Y71.202
G0 X106.73 Y75.774
G0 X106.8 Y75.704
M204 S2000
M205 X20 Y20
;TYPE:WALL-OUTER
G1 F1800 E0.91489
G1 F3600 X108.727 Y75.704 E1.00814
G1 X108.927 Y75.704 E1.01782
G1 X108.927 Y75.904 E1.02409
G1 X108.926 Y124.964 E3.39828
G1 X108.865 Y125.459 E3.42241
G1 X108.706 Y125.937 E3.44679
G1 X108.459 Y126.368 E3.47083
G1 X108.132 Y126.743 E3.49491
G1 X107.732 Y127.05 E3.51931
G1 X107.286 Y127.271 E3.5434
G1 X106.804 Y127.398 E3.56752
G1 X106.397 Y127.431 E3.58728
G1 X100.703 Y127.431 E3.86283
G1 X96.193 Y131.941 E4.17149
G1 X96.15 Y131.984 E4.17443
G1 X96.025 Y132.05 E4.18127
G1 X95.915 Y132.035 E4.18665
G1 X95.873 Y132.007 E4.18909
G1 X95.83 Y131.964 E4.19203
G1 X91.298 Y127.431 E4.50223
G1 X58.704 Y127.43 E6.07957
G1 X54.193 Y131.941 E6.3883
G1 X54.152 Y131.982 E6.3911
G1 X54.037 Y132.048 E6.39752
G1 X53.928 Y132.04 E6.40281
G1 X53.872 Y132.006 E6.40598
G1 X53.831 Y131.965 E6.40878
G1 X49.297 Y127.43 E6.71912
G1 X43.607 Y127.43 E6.99448
G1 X43.134 Y127.387 E7.01746
G1 X42.654 Y127.247 E7.04166
G1 X42.215 Y127.016 E7.06567
G1 X41.823 Y126.701 E7.09
G1 X41.505 Y126.316 E7.11417
G1 X41.268 Y125.877 E7.13831
G1 X41.123 Y125.403 E7.1623
G1 X41.073 Y124.894 E7.18705
G1 X41.073 Y44.401 E11.08239
G1 X41.074 Y10.443 E12.72573
G1 X41.135 Y9.948 E12.74987
G1 X41.294 Y9.472 E12.77416
G1 X41.543 Y9.037 E12.79841
G1 X41.868 Y8.664 E12.82235
G1 X42.268 Y8.357 E12.84675
G1 X42.714 Y8.136 E12.87084
G1 X43.196 Y8.009 E12.89496
G1 X43.603 Y7.976 E12.91473
G1 X106.393 Y7.977 E15.95335
G1 X106.866 Y8.02 E15.97634
G1 X107.346 Y8.16 E16.00053
G1 X107.789 Y8.392 E16.02473
G1 X108.174 Y8.704 E16.04872
G1 X108.495 Y9.091 E16.07305
G1 X108.732 Y9.53 E16.09719
G1 X108.877 Y10.004 E16.12118
G1 X108.927 Y10.514 E16.14598
G1 X108.927 Y60.303 E18.55544
G1 X106.8 Y60.305 E18.65837
G1 X106.8 Y75.704 E19.40359
M204 S3000
M205 X30 Y30
G0 F5400 X107 Y75.704
G0 X107 Y75.804
G0 X100.665 Y17.822
G0 X100.047 Y16.783
G0 X99.102 Y16.245
G0 X51.485 Y16.165
G0 X50.357 Y16.476
G0 X49.469 Y17.323
G0 X49.557 Y17.369
M204 S2000
M205 X20 Y20
G1 F3600 X49.352 Y17.93 E19.43249
G1 X49.3 Y18.393 E19.45504
G1 X49.3 Y117.017 E24.2278
G1 X49.373 Y117.575 E24.25503
G1 X49.606 Y118.127 E24.28403
G1 X49.98 Y118.596 E24.31306
G1 X50.464 Y118.944 E24.34191
G1 X50.908 Y119.124 E24.36509
G1 X51.456 Y119.201 E24.39187
G1 X51.49 Y119.204 E24.39352
G1 X98.513 Y119.204 E26.66913
G1 X99.072 Y119.13 E26.69642
G1 X99.623 Y118.897 E26.72537
G1 X100.092 Y118.523 E26.7544
G1 X100.443 Y118.038 E26.78337
G1 X100.648 Y117.477 E26.81228
G1 X100.7 Y117.015 E26.83477
G1 X100.7 Y96.516 E27.82679
G1 X100.765 Y96.033 E27.85038
G1 X100.915 Y95.653 E27.87015
G1 X101.191 Y95.271 E27.89295
G1 X101.465 Y95.041 E27.91027
G1 X101.89 Y95.131 E27.93129
G1 X102.5 Y95.177 E27.96089
G1 X103.111 Y95.131 E27.99055
G1 X103.71 Y94.997 E28.02025
G1 X104.284 Y94.776 E28.05002
G1 X104.817 Y94.474 E28.07966
G1 X105.303 Y94.096 E28.10946
G1 X105.726 Y93.65 E28.1392
G1 X106.079 Y93.149 E28.16886
G1 X106.355 Y92.6 E28.1986
G1 X106.547 Y92.017 E28.2283
G1 X106.653 Y91.414 E28.25793
G1 X106.673 Y91.009 E28.27756
G1 X106.674 Y86.996 E28.47176
G1 X106.628 Y86.392 E28.50107
G1 X106.493 Y85.794 E28.53074
G1 X106.272 Y85.219 E28.56055
G1 X105.97 Y84.686 E28.5902
G1 X105.592 Y84.201 E28.61996
G1 X105.147 Y83.777 E28.6497
G1 X104.645 Y83.424 E28.6794
G1 X104.096 Y83.148 E28.70914
G1 X103.513 Y82.955 E28.73886
G1 X102.909 Y82.85 E28.76852
G1 X102.296 Y82.835 E28.7982
G1 X101.689 Y82.91 E28.8278
G1 X101.467 Y82.964 E28.83885
G1 X101.151 Y82.692 E28.85903
G1 X100.907 Y82.339 E28.8798
G1 X100.746 Y81.89 E28.90288
G1 X100.7 Y81.49 E28.92236
G1 X100.7 Y18.391 E31.97595
G1 X100.627 Y17.832 E32.00323
G1 X100.394 Y17.28 E32.03222
G1 X100.02 Y16.811 E32.06125
G1 X99.536 Y16.463 E32.0901
G1 X99.092 Y16.283 E32.11329
G1 X98.544 Y16.207 E32.14006
G1 X98.51 Y16.204 E32.14171
G1 X51.487 Y16.204 E34.41732
G1 X50.928 Y16.277 E34.4446
G1 X50.377 Y16.51 E34.47355
G1 X49.908 Y16.884 E34.50258
G1 X49.557 Y17.369 E34.53155
M204 S3000
M205 X30 Y30
G0 F5400 X49.489 Y17.556
G0 X49.21 Y17.184
M204 S2000
M205 X20 Y20
;TYPE:SKIN
G1 F3600 X48.97 Y17.84 E34.56536
G1 X48.91 Y18.371 E34.59122
G1 X48.91 Y117.042 E39.36625
G1 X48.993 Y117.678 E39.39729
G1 X49.267 Y118.328 E39.43143
G1 X49.709 Y118.881 E39.46569
G1 X50.274 Y119.287 E39.49936
G1 X50.806 Y119.504 E39.52716
G1 X51.412 Y119.589 E39.55678
G1 X51.473 Y119.594 E39.55974
G1 X98.538 Y119.594 E41.83738
G1 X99.175 Y119.51 E41.86847
G1 X99.824 Y119.236 E41.90256
G1 X100.377 Y118.794 E41.93682
G1 X100.79 Y118.223 E41.97093
G1 X101.03 Y117.567 E42.00473
G1 X101.09 Y117.037 E42.03054
G1 X101.09 Y96.538 E43.02256
G1 X101.144 Y96.135 E43.04224
G1 X101.261 Y95.84 E43.05759
G1 X101.479 Y95.538 E43.07562
G1 X101.57 Y95.462 E43.08136
G1 X101.835 Y95.517 E43.09445
G1 X102.5 Y95.569 E43.12673
G1 X103.168 Y95.517 E43.15916
G1 X103.823 Y95.371 E43.19163
G1 X104.451 Y95.129 E43.2242
G1 X105.034 Y94.8 E43.2566
G1 X105.566 Y94.386 E43.28922
G1 X106.028 Y93.898 E43.32174
G1 X106.414 Y93.35 E43.35418
G1 X106.716 Y92.75 E43.38669
G1 X106.926 Y92.112 E43.41919
G1 X107.041 Y91.457 E43.45137
G1 X107.063 Y91.019 E43.4726
G1 X107.064 Y86.981 E43.66801
G1 X107.014 Y86.334 E43.69941
G1 X106.867 Y85.681 E43.73181
G1 X106.625 Y85.052 E43.76442
G1 X106.295 Y84.469 E43.79684
G1 X105.882 Y83.938 E43.8294
G1 X105.395 Y83.475 E43.86191
G1 X104.846 Y83.089 E43.89439
G1 X104.246 Y82.787 E43.9269
G1 X103.608 Y82.575 E43.95943
G1 X102.948 Y82.46 E43.99185
G1 X102.277 Y82.445 E44.02433
G1 X101.618 Y82.526 E44.05647
G1 X101.57 Y82.538 E44.05886
G1 X101.445 Y82.43 E44.06685
G1 X101.257 Y82.159 E44.08282
G1 X101.13 Y81.803 E44.10111
G1 X101.09 Y81.463 E44.11767
G1 X101.09 Y18.366 E47.17116
G1 X101.007 Y17.729 E47.20225
G1 X100.733 Y17.079 E47.23638
G1 X100.291 Y16.526 E47.27064
G1 X99.726 Y16.12 E47.30431
G1 X99.194 Y15.903 E47.33212
G1 X98.588 Y15.819 E47.36172
G1 X98.527 Y15.814 E47.36469
G1 X51.462 Y15.814 E49.64233
G1 X50.825 Y15.897 E49.67341
G1 X50.176 Y16.171 E49.7075
G1 X49.623 Y16.613 E49.74176
G1 X49.21 Y17.184 E49.77587
M204 S3000
M205 X30 Y30
G0 F5400 X41.464 Y10.466
M204 S2000
M205 X20 Y20
G1 F3600 X41.517 Y10.035 E49.79688
G1 X41.652 Y9.633 E49.8174
G1 X41.863 Y9.263 E49.83802
G1 X42.133 Y8.953 E49.85791
G1 X42.481 Y8.686 E49.87914
G1 X42.85 Y8.504 E49.89905
G1 X43.265 Y8.394 E49.91983
G1 X43.611 Y8.366 E49.93662
G1 X106.38 Y8.367 E52.97424
G1 X106.794 Y8.404 E52.99435
G1 X107.199 Y8.523 E53.01478
G1 X107.57 Y8.717 E53.03504
G1 X107.9 Y8.984 E53.05558
G1 X108.171 Y9.311 E53.07613
G1 X108.369 Y9.678 E53.09631
G1 X108.493 Y10.083 E53.11681
G1 X108.537 Y10.532 E53.13864
G1 X108.537 Y59.913 E55.52836
G1 X106.41 Y59.915 E55.6313
G1 X106.41 Y76.094 E56.41425
G1 X108.537 Y76.094 E56.51719
G1 X108.536 Y124.941 E58.88106
G1 X108.483 Y125.372 E58.90208
G1 X108.348 Y125.776 E58.92269
G1 X108.139 Y126.142 E58.94309
G1 X107.867 Y126.454 E58.96312
G1 X107.519 Y126.721 E58.98435
G1 X107.15 Y126.903 E59.00426
G1 X106.735 Y127.013 E59.02504
G1 X106.389 Y127.041 E59.04183
G1 X100.541 Y127.041 E59.32484
G1 X96 Y131.584 E59.63569
G1 X92.397 Y127.98 E59.88231
G1 X92.397 Y127.978 E59.8824
G1 X91.46 Y127.041 E59.94653
G1 X58.542 Y127.04 E61.53955
G1 X54 Y131.584 E61.85047
G1 X50.34 Y127.923 E62.10099
G1 X49.459 Y127.04 E62.16135
G1 X43.62 Y127.04 E62.44392
G1 X43.206 Y127.003 E62.46403
G1 X42.803 Y126.885 E62.48435
G1 X42.429 Y126.688 E62.50481
G1 X42.096 Y126.42 E62.5255
G1 X41.831 Y126.1 E62.5456
G1 X41.631 Y125.729 E62.566
G1 X41.507 Y125.324 E62.5865
G1 X41.463 Y124.875 E62.60833
G1 X41.463 Y44.401 E66.50275
G1 X41.464 Y10.466 E68.14498
M204 S3000
M205 X30 Y30
G0 F5400 X107.113 Y8.684
M204 S2000
M205 X20 Y20
G1 F3600 X108.213 Y9.784 E68.22026
M204 S3000
M205 X30 Y30
G0 F5400 X108.351 Y10.487
M204 S2000
M205 X20 Y20
G1 F3600 X106.414 Y8.551 E68.3528
M204 S3000
M205 X30 Y30
G0 F5400 X105.844 Y8.546
M204 S2000
M205 X20 Y20
G1 F3600 X108.356 Y11.058 E68.52471
M204 S3000
M205 X30 Y30
G0 F5400 X108.356 Y11.624
M204 S2000
M205 X20 Y20
G1 F3600 X105.279 Y8.546 E68.73533
M204 S3000
M205 X30 Y30
G0 F5400 X104.713 Y8.546
M204 S2000
M205 X20 Y20
G1 F3600 X108.356 Y12.189 E68.98466
M204 S3000
M205 X30 Y30
G0 F5400 X108.356 Y12.755
M204 S2000
M205 X20 Y20
G1 F3600 X104.147 Y8.546 E69.27271
M204 S3000
M205 X30 Y30
G0 F5400 X103.581 Y8.546
M204 S2000
M205 X20 Y20
G1 F3600 X108.356 Y13.321 E69.59951
M204 S3000
M205 X30 Y30
G0 F5400 X108.356 Y13.886
M204 S2000
M205 X20 Y20
G1 F3600 X103.016 Y8.546 E69.96497
M204 S3000
M205 X30 Y30
G0 F5400 X102.45 Y8.546
M204 S2000
M205 X20 Y20
G1 F3600 X108.356 Y14.452 E70.36917
M204 S3000
M205 X30 Y30
G0 F5400 X108.356 Y15.018
M204 S2000
M205 X20 Y20
G1 F3600 X101.884 Y8.546 E70.81211
M204 S3000
M205 X30 Y30
G0 F5400 X101.319 Y8.546
M204 S2000
M205 X20 Y20
G1 F3600 X108.356 Y15.583 E71.29371
M204 S3000
M205 X30 Y30
G0 F5400 X108.356 Y16.149
M204 S2000
M205 X20 Y20
G1 F3600 X100.753 Y8.546 E71.81405
M204 S3000
M205 X30 Y30
G0 F5400 X100.187 Y8.546
M204 S2000
M205 X20 Y20
G1 F3600 X108.356 Y16.715 E72.37313
M204 S3000
M205 X30 Y30
G0 F5400 X108.356 Y17.28
M204 S2000
M205 X20 Y20
G1 F3600 X99.622 Y8.546 E72.97087
M204 S3000
M205 X30 Y30
G0 F5400 X99.056 Y8.546
M204 S2000
M205 X20 Y20
G1 F3600 X108.356 Y17.846 E73.60735
M204 S3000
M205 X30 Y30
G0 F5400 X108.356 Y18.412
M204 S2000
M205 X20 Y20
G1 F3600 X98.49 Y8.546 E74.28257
M204 S3000
M205 X30 Y30
G0 F5400 X97.925 Y8.546
M204 S2000
M205 X20 Y20
G1 F3600 X108.356 Y18.978 E74.99649
M204 S3000
M205 X30 Y30
G0 F5400 X108.356 Y19.543
M204 S2000
M205 X20 Y20
G1 F3600 X97.359 Y8.546 E75.74911
M204 S3000
M205 X30 Y30
G0 F5400 X96.793 Y8.546
M204 S2000
M205 X20 Y20
G1 F3600 X108.356 Y20.109 E76.54046
M204 S3000
M205 X30 Y30
G0 F5400 X108.356 Y20.675
M204 S2000
M205 X20 Y20
G1 F3600 X96.228 Y8.546 E77.37052
M204 S3000
M205 X30 Y30
G0 F5400 X95.662 Y8.546
M204 S2000
M205 X20 Y20
G1 F3600 X108.356 Y21.24 E78.23928
M204 S3000
M205 X30 Y30
G0 F5400 X108.356 Y21.806
M204 S2000
M205 X20 Y20
G1 F3600 X95.096 Y8.546 E79.14678
M204 S3000
M205 X30 Y30
G0 F5400 X94.53 Y8.546
M204 S2000
M205 X20 Y20
G1 F3600 X108.356 Y22.372 E80.09302
M204 S3000
M205 X30 Y30
G0 F5400 X108.356 Y22.937
M204 S2000
M205 X20 Y20
G1 F3600 X93.965 Y8.546 E81.07792
M204 S3000
M205 X30 Y30
G0 F5400 X93.399 Y8.546
M204 S2000
M205 X20 Y20
G1 F3600 X108.356 Y23.503 E82.10156
M204 S3000
M205 X30 Y30
G0 F5400 X108.356 Y24.069
M204 S2000
M205 X20 Y20
G1 F3600 X92.833 Y8.546 E83.16393
M204 S3000
M205 X30 Y30
G0 F5400 X92.268 Y8.546
M204 S2000
M205 X20 Y20
G1 F3600 X99.593 Y15.872 E83.66528
M204 S3000
M205 X30 Y30
G0 F5400 X98.825 Y15.67
M204 S2000
M205 X20 Y20
G1 F3600 X91.702 Y8.546 E84.1528
M204 S3000
M205 X30 Y30
G0 F5400 X91.136 Y8.546
M204 S2000
M205 X20 Y20
G1 F3600 X98.223 Y15.633 E84.63783
M204 S3000
M205 X30 Y30
G0 F5400 X97.657 Y15.633
M204 S2000
M205 X20 Y20
G1 F3600 X90.571 Y8.546 E85.12282
M204 S3000
M205 X30 Y30
G0 F5400 X90.005 Y8.546
M204 S2000
M205 X20 Y20
G1 F3600 X97.092 Y15.633 E85.60784
M204 S3000
M205 X30 Y30
G0 F5400 X96.526 Y15.633
M204 S2000
M205 X20 Y20
G1 F3600 X89.439 Y8.546 E86.09287
M204 S3000
M205 X30 Y30
G0 F5400 X88.874 Y8.546
M204 S2000
M205 X20 Y20
G1 F3600 X95.96 Y15.633 E86.57786
M204 S3000
M205 X30 Y30
G0 F5400 X95.395 Y15.633
M204 S2000
M205 X20 Y20
G1 F3600 X88.308 Y8.546 E87.06289
M204 S3000
M205 X30 Y30
G0 F5400 X87.742 Y8.546
M204 S2000
M205 X20 Y20
G1 F3600 X94.829 Y15.633 E87.54791
M204 S3000
M205 X30 Y30
G0 F5400 X94.263 Y15.633
M204 S2000
M205 X20 Y20
G1 F3600 X87.177 Y8.546 E88.0329
M204 S3000
M205 X30 Y30
G0 F5400 X86.611 Y8.546
M204 S2000
M205 X20 Y20
G1 F3600 X93.698 Y15.633 E88.51793
M204 S3000
M205 X30 Y30
G0 F5400 X93.132 Y15.633
M204 S2000
M205 X20 Y20
G1 F3600 X86.045 Y8.546 E89.00295
M204 S3000
M205 X30 Y30
G0 F5400 X85.48 Y8.546
M204 S2000
M205 X20 Y20
G1 F3600 X92.566 Y15.633 E89.48794
M204 S3000
M205 X30 Y30
G0 F5400 X92 Y15.633
M204 S2000
M205 X20 Y20
G1 F3600 X84.914 Y8.546 E89.97294
M204 S3000
M205 X30 Y30
G0 F5400 X84.348 Y8.546
M204 S2000
M205 X20 Y20
G1 F3600 X91.435 Y15.633 E90.45796
M204 S3000
M205 X30 Y30
G0 F5400 X90.869 Y15.633
M204 S2000
M205 X20 Y20
G1 F3600 X83.782 Y8.546 E90.94299
M204 S3000
M205 X30 Y30
G0 F5400 X83.217 Y8.546
M204 S2000
M205 X20 Y20
G1 F3600 X90.303 Y15.633 E91.42798
M204 S3000
M205 X30 Y30
G0 F5400 X89.738 Y15.633
M204 S2000
M205 X20 Y20
G1 F3600 X82.651 Y8.546 E91.913
M204 S3000
M205 X30 Y30
G0 F5400 X82.085 Y8.546
M204 S2000
M205 X20 Y20
G1 F3600 X89.172 Y15.633 E92.39803
M204 S3000
M205 X30 Y30
G0 F5400 X88.606 Y15.633
M204 S2000
M205 X20 Y20
G1 F3600 X81.52 Y8.546 E92.88302
M204 S3000
M205 X30 Y30
G0 F5400 X80.954 Y8.546
M204 S2000
M205 X20 Y20
G1 F3600 X88.041 Y15.633 E93.36804
M204 S3000
M205 X30 Y30
G0 F5400 X87.475 Y15.633
M204 S2000
M205 X20 Y20
G1 F3600 X80.388 Y8.546 E93.85307
M204 S3000
M205 X30 Y30
G0 F5400 X79.823 Y8.546
M204 S2000
M205 X20 Y20
G1 F3600 X86.909 Y15.633 E94.33806
M204 S3000
M205 X30 Y30
G0 F5400 X86.344 Y15.633
M204 S2000
M205 X20 Y20
G1 F3600 X79.257 Y8.546 E94.82309
M204 S3000
M205 X30 Y30
G0 F5400 X78.691 Y8.546
M204 S2000
M205 X20 Y20
G1 F3600 X85.778 Y15.633 E95.30811
M204 S3000
M205 X30 Y30
G0 F5400 X85.212 Y15.633
M204 S2000
M205 X20 Y20
G1 F3600 X78.126 Y8.546 E95.7931
M204 S3000
M205 X30 Y30
G0 F5400 X77.56 Y8.546
M204 S2000
M205 X20 Y20
G1 F3600 X84.647 Y15.633 E96.27813
M204 S3000
M205 X30 Y30
G0 F5400 X84.081 Y15.633
M204 S2000
M205 X20 Y20
G1 F3600 X76.994 Y8.546 E96.76315
M204 S3000
M205 X30 Y30
G0 F5400 X76.429 Y8.546
M204 S2000
M205 X20 Y20
G1 F3600 X83.515 Y15.633 E97.24814
M204 S3000
M205 X30 Y30
G0 F5400 X82.949 Y15.633
M204 S2000
M205 X20 Y20
G1 F3600 X75.863 Y8.546 E97.73314
M204 S3000
M205 X30 Y30
G0 F5400 X75.297 Y8.546
M204 S2000
M205 X20 Y20
