;FLAVOR:Marlin
;TIME:1756
;Filament used: 3.10438m
;Layer height: 0.3
;Generated with Cura_SteamEngine 4.0.0
M140 S50
M105
M190 S50
M104 S230
M105
M109 S230
M82 ;absolute extrusion mode
G21       ;metric values
G90       ;absolute positioning
M82       ;set extruder to absolute mode
M106      ;start with the fan on
G28 X0 Y0 ;home X/Y
G28 Z0    ;home Z
G92 E0    ;zero the extruded length
G29       ;initiate auto bed leveling sequence
G1 X150 Y145 Z15 F4000
G1 X150 Y145 Z0.30 F1000
G1 X1 Y150 Z0.25 E15.0 F2000
G1 X1 Y150 Z0.25 E14.0 F4000
G1 X1 Y1 Z0.25 F16000
G1 X1 Y1 Z0.25 E15.0 F4000
G92 E0
M107      ;start with the fan off
G92 E0
;LAYER_COUNT:56
;LAYER:0
M107
;MESH:M5StickC_OuterCover_with_SPK.stl
G0 F3600 X66.4 Y32.941 Z0.3
;TYPE:WALL-INNER
G1 F2400 X84.228 Y32.946 E0.84497
G1 X84.788 Y32.994 E0.87161
G1 X85.159 Y33.051 E0.8894
G1 X85.454 Y33.113 E0.90369
G1 X85.747 Y33.19 E0.91805
G1 X86.274 Y33.372 E0.94447
G1 X86.697 Y33.556 E0.96633
G1 X86.904 Y33.656 E0.97723
G1 X87.176 Y33.809 E0.99202
G1 X87.431 Y33.968 E1.00626
G1 X87.688 Y34.146 E1.02108
G1 X87.943 Y34.342 E1.03632
G1 X88.4 Y34.731 E1.06477
G1 X88.819 Y35.209 E1.09489
G1 X89.004 Y35.443 E1.10903
G1 X89.195 Y35.712 E1.12467
G1 X89.348 Y35.949 E1.13804
G1 X89.511 Y36.234 E1.1536
G1 X89.646 Y36.497 E1.16761
G1 X89.771 Y36.782 E1.18236
G1 X89.887 Y37.081 E1.19756
G1 X89.989 Y37.385 E1.21276
G1 X90.063 Y37.655 E1.22603
G1 X90.137 Y37.977 E1.24169
G1 X90.192 Y38.29 E1.25675
G1 X90.229 Y38.587 E1.27093
G1 X90.25 Y38.876 E1.28467
G1 X90.259 Y39.2 E1.30003
G1 X90.257 Y102.869 E4.31767
G1 X90.235 Y103.19 E4.33292
G1 X90.204 Y103.377 E4.3419
G1 X90.13 Y103.695 E4.35737
G1 X90.021 Y104.016 E4.37344
G1 X89.978 Y104.121 E4.37882
G1 X89.83 Y104.414 E4.39438
G1 X89.653 Y104.69 E4.40992
G1 X89.541 Y104.837 E4.41868
G1 X89.34 Y105.068 E4.43319
G1 X89.217 Y105.186 E4.44127
G1 X88.954 Y105.404 E4.45746
G1 X88.688 Y105.584 E4.47268
G1 X88.443 Y105.721 E4.48599
G1 X88.257 Y105.804 E4.49564
G1 X87.699 Y106.02 E4.524
G1 X87.022 Y106.057 E4.55613
G1 X86.226 Y106.057 E4.59386
G1 X86.193 Y106.114 E4.59698
G1 X86.16 Y106.172 E4.60014
G1 X86.127 Y106.115 E4.60073
G1 X86.094 Y106.058 E4.60171
G1 X76.908 Y106.058 E5.03708
G1 X76.875 Y106.116 E5.04025
G1 X76.841 Y106.174 E5.04343
G1 X76.808 Y106.116 E5.04405
G1 X76.774 Y106.058 E5.0451
G1 X73.226 Y106.058 E5.21326
G1 X73.193 Y106.116 E5.21643
G1 X73.159 Y106.174 E5.21961
G1 X73.126 Y106.116 E5.22023
G1 X73.093 Y106.059 E5.22121
G1 X63.908 Y106.058 E5.65654
G1 X63.874 Y106.116 E5.65973
G1 X63.841 Y106.173 E5.66285
G1 X63.808 Y106.116 E5.66346
G1 X63.776 Y106.06 E5.66442
G1 X62.841 Y106.052 E5.70873
G1 X62.192 Y105.99 E5.73963
G1 X61.55 Y105.712 E5.77279
G1 X61.235 Y105.537 E5.78987
G1 X60.957 Y105.337 E5.8061
G1 X60.713 Y105.12 E5.82158
G1 X60.535 Y104.925 E5.83409
G1 X60.442 Y104.811 E5.84107
G1 X60.216 Y104.49 E5.85967
G1 X60.063 Y104.21 E5.8748
G1 X59.96 Y103.961 E5.88757
G1 X59.905 Y103.808 E5.89527
G1 X59.837 Y103.571 E5.90696
G1 X59.802 Y103.41 E5.91477
G1 X59.758 Y103.113 E5.929
G1 X59.741 Y102.79 E5.94433
G1 X59.744 Y39.055 E8.96509
G1 X59.778 Y38.557 E8.98875
G1 X59.824 Y38.197 E9.00595
G1 X59.917 Y37.742 E9.02796
G1 X59.995 Y37.445 E9.04252
G1 X60.063 Y37.225 E9.05343
G1 X60.17 Y36.924 E9.06857
G1 X60.281 Y36.659 E9.08219
G1 X60.428 Y36.352 E9.09832
G1 X60.575 Y36.08 E9.11297
G1 X60.73 Y35.824 E9.12716
G1 X60.899 Y35.575 E9.14142
G1 X61.09 Y35.319 E9.15656
G1 X61.491 Y34.833 E9.18642
G1 X61.948 Y34.432 E9.21524
G1 X62.183 Y34.242 E9.22956
G1 X62.44 Y34.053 E9.24468
G1 X62.683 Y33.894 E9.25844
G1 X62.975 Y33.721 E9.27453
G1 X63.22 Y33.593 E9.28763
G1 X63.513 Y33.459 E9.3029
G1 X63.808 Y33.339 E9.318
G1 X64.092 Y33.241 E9.33224
G1 X64.389 Y33.154 E9.3469
G1 X64.701 Y33.078 E9.36212
G1 X64.998 Y33.023 E9.37644
G1 X65.308 Y32.981 E9.39127
G1 X65.596 Y32.955 E9.40497
G1 X66.4 Y32.929 E9.4431
G1 X66.4 Y32.941 E9.44367
G0 F3600 X66.33 Y33.011
G0 X64.469 Y37.401
G0 X63.831 Y39.055
G0 X63.931 Y39.055
G1 F2400 X63.928 Y99.856 E12.32537
G1 X63.941 Y100.056 E12.33487
G1 X63.979 Y100.259 E12.34466
G1 X64.033 Y100.454 E12.35425
G1 X64.107 Y100.647 E12.36405
G1 X64.201 Y100.829 E12.37375
G1 X64.31 Y101 E12.38337
G1 X64.437 Y101.163 E12.39316
G1 X64.582 Y101.312 E12.40301
G1 X64.737 Y101.443 E12.41263
G1 X64.904 Y101.56 E12.4223
G1 X65.083 Y101.66 E12.43201
G1 X65.274 Y101.743 E12.44188
G1 X65.468 Y101.803 E12.45151
G1 X65.668 Y101.847 E12.46122
G1 X65.877 Y101.87 E12.47118
G1 X84.081 Y101.872 E13.33397
G1 X84.282 Y101.854 E13.34354
G1 X84.483 Y101.816 E13.35323
G1 X84.678 Y101.758 E13.36287
G1 X84.868 Y101.683 E13.37256
G1 X85.053 Y101.586 E13.38246
G1 X85.221 Y101.475 E13.392
G1 X85.383 Y101.346 E13.40181
G1 X85.529 Y101.199 E13.41163
G1 X85.658 Y101.043 E13.42123
G1 X85.773 Y100.874 E13.43092
G1 X85.872 Y100.692 E13.44074
G1 X85.95 Y100.503 E13.45043
G1 X86.01 Y100.31 E13.46001
G1 X86.051 Y100.106 E13.46987
G1 X86.071 Y99.9 E13.47968
G1 X86.074 Y39.183 E16.3574
G1 X86.063 Y38.992 E16.36647
G1 X86.032 Y38.791 E16.37611
G1 X85.982 Y38.594 E16.38574
G1 X85.914 Y38.402 E16.3954
G1 X85.824 Y38.216 E16.40519
G1 X85.719 Y38.041 E16.41486
G1 X85.594 Y37.875 E16.42471
G1 X85.456 Y37.726 E16.43434
G1 X85.305 Y37.589 E16.444
G1 X85.136 Y37.466 E16.45391
G1 X84.961 Y37.364 E16.46351
G1 X84.775 Y37.276 E16.47326
G1 X84.58 Y37.21 E16.48302
G1 X84.382 Y37.162 E16.49267
G1 X84.181 Y37.135 E16.50228
G1 X84.015 Y37.127 E16.51016
G1 X65.964 Y37.127 E17.3657
G1 X65.769 Y37.139 E17.37496
G1 X65.566 Y37.173 E17.38472
G1 X65.372 Y37.225 E17.39424
G1 X65.179 Y37.296 E17.40398
G1 X64.992 Y37.388 E17.41386
G1 X64.821 Y37.495 E17.42342
G1 X64.656 Y37.62 E17.43323
G1 X64.507 Y37.762 E17.44299
G1 X64.374 Y37.914 E17.45256
G1 X64.252 Y38.084 E17.46248
G1 X64.15 Y38.264 E17.47228
G1 X64.068 Y38.449 E17.48187
G1 X64.003 Y38.643 E17.49157
G1 X63.958 Y38.842 E17.50124
G1 X63.931 Y39.055 E17.51142
G0 F3600 X63.831 Y39.055
G0 X59.769 Y101.587
G0 X56.872 Y101.587
G0 X56.877 Y103.255
G0 X57.137 Y104.623
G0 X57.698 Y105.897
G0 X58.389 Y106.853
G0 X65.245 Y113.755
G0 X66.231 Y114.403
G0 X67.339 Y114.805
G0 X68.211 Y114.935
G0 X68.789 Y114.935
G0 X69.934 Y114.733
G0 X70.815 Y114.356
G0 X75 Y112.221
G0 X75 Y112.321
G1 F2400 X74.83 Y112.599 E17.52686
G1 X74.178 Y113.664 E17.58604
G1 X73.922 Y114.021 E17.60687
G1 X73.628 Y114.381 E17.6289
G1 X73.328 Y114.699 E17.64962
G1 X73.012 Y114.997 E17.6702
G1 X72.649 Y115.294 E17.69243
G1 X72.302 Y115.543 E17.71267
G1 X71.911 Y115.786 E17.73449
G1 X71.514 Y115.998 E17.75582
G1 X71.108 Y116.182 E17.77695
G1 X70.701 Y116.336 E17.79757
G1 X70.276 Y116.465 E17.81863
G1 X69.827 Y116.569 E17.84047
G1 X69.391 Y116.641 E17.86141
G1 X68.952 Y116.684 E17.88232
G1 X68.5 Y116.7 E17.90376
G1 X68.048 Y116.684 E17.92519
G1 X67.609 Y116.641 E17.9461
G1 X67.173 Y116.569 E17.96704
G1 X66.724 Y116.465 E17.98889
G1 X66.299 Y116.336 E18.00994
G1 X65.892 Y116.182 E18.03056
G1 X65.486 Y115.998 E18.05169
G1 X65.089 Y115.786 E18.07302
G1 X64.698 Y115.543 E18.09484
G1 X64.351 Y115.294 E18.11508
G1 X63.988 Y114.997 E18.13731
G1 X63.672 Y114.699 E18.1579
G1 X63.372 Y114.381 E18.17862
G1 X63.078 Y114.021 E18.20065
G1 X62.823 Y113.665 E18.2214
G1 X62.577 Y113.269 E18.2435
G1 X60.943 Y110.438 E18.39842
G1 X60.252 Y110.206 E18.43297
G1 X59.807 Y110.026 E18.45572
G1 X59.359 Y109.811 E18.47927
G1 X58.93 Y109.571 E18.50257
G1 X58.546 Y109.324 E18.52421
G1 X58.131 Y109.022 E18.54853
G1 X57.775 Y108.725 E18.57051
G1 X57.415 Y108.385 E18.59398
G1 X57.083 Y108.034 E18.61688
G1 X56.766 Y107.652 E18.6404
G1 X56.485 Y107.266 E18.66303
G1 X56.22 Y106.854 E18.68625
G1 X55.988 Y106.438 E18.70883
G1 X55.773 Y105.991 E18.73233
G1 X55.595 Y105.552 E18.75479
G1 X55.433 Y105.071 E18.77884
G1 X55.358 Y104.802 E18.79208
G1 X55.291 Y104.525 E18.80559
G1 X55.234 Y104.245 E18.81913
G1 X55.184 Y103.946 E18.8335
G1 X55.147 Y103.658 E18.84726
G1 X55.121 Y103.377 E18.86063
G1 X55.106 Y103.093 E18.87411
G1 X55.1 Y102.8 E18.888
G1 X55.1 Y39.215 E21.90166
G1 X55.114 Y38.651 E21.9284
G1 X55.153 Y38.123 E21.95349
G1 X55.218 Y37.596 E21.97866
G1 X55.308 Y37.078 E22.00358
G1 X55.424 Y36.565 E22.0285
G1 X55.571 Y36.031 E22.05475
G1 X55.739 Y35.523 E22.08011
G1 X55.928 Y35.033 E22.10501
G1 X56.149 Y34.535 E22.13083
G1 X56.38 Y34.075 E22.15522
G1 X56.643 Y33.609 E22.18059
G1 X56.94 Y33.14 E22.2069
G1 X57.248 Y32.702 E22.23227
G1 X57.571 Y32.289 E22.25712
G1 X57.927 Y31.877 E22.28293
G1 X58.289 Y31.496 E22.30784
G1 X58.677 Y31.127 E22.33322
G1 X59.089 Y30.771 E22.35903
G1 X59.5 Y30.45 E22.38374
G1 X59.94 Y30.14 E22.40925
G1 X60.395 Y29.852 E22.43477
G1 X60.859 Y29.589 E22.46005
G1 X61.335 Y29.349 E22.48532
G1 X61.833 Y29.128 E22.51114
G1 X62.324 Y28.939 E22.53608
G1 X62.838 Y28.769 E22.56174
G1 X63.365 Y28.624 E22.58764
G1 X63.87 Y28.51 E22.61218
G1 X64.405 Y28.417 E22.63792
G1 X64.928 Y28.352 E22.6629
G1 X65.459 Y28.314 E22.68813
G1 X65.875 Y28.303 E22.70785
G1 X83.985 Y28.3 E23.56619
G1 X84.541 Y28.314 E23.59255
G1 X85.072 Y28.352 E23.61778
G1 X85.595 Y28.417 E23.64276
G1 X86.13 Y28.51 E23.66849
G1 X86.635 Y28.624 E23.69303
G1 X87.162 Y28.769 E23.71894
G1 X87.676 Y28.939 E23.7446
G1 X88.167 Y29.128 E23.76953
G1 X88.665 Y29.349 E23.79535
G1 X89.141 Y29.589 E23.82062
G1 X89.605 Y29.852 E23.8459
G1 X90.06 Y30.14 E23.87142
G1 X90.5 Y30.45 E23.89693
G1 X90.911 Y30.771 E23.92165
G1 X91.323 Y31.127 E23.94745
G1 X91.704 Y31.489 E23.97236
G1 X92.073 Y31.877 E23.99774
G1 X92.429 Y32.289 E24.02355
G1 X92.746 Y32.694 E24.04792
G1 X93.06 Y33.14 E24.07378
G1 X93.352 Y33.601 E24.09964
G1 X93.615 Y34.066 E24.12496
G1 X93.851 Y34.535 E24.14984
G1 X94.072 Y35.033 E24.17567
G1 X94.258 Y35.515 E24.20015
G1 X94.426 Y36.022 E24.22547
G1 X94.574 Y36.557 E24.25178
G1 X94.688 Y37.059 E24.27618
G1 X94.782 Y37.596 E24.30201
G1 X94.847 Y38.117 E24.3269
G1 X94.886 Y38.651 E24.35228
G1 X94.9 Y39.2 E24.3783
G1 X94.9 Y102.788 E27.3921
G1 X94.893 Y103.119 E27.40779
G1 X94.875 Y103.426 E27.42237
G1 X94.845 Y103.731 E27.43689
G1 X94.799 Y104.059 E27.45259
G1 X94.678 Y104.661 E27.48169
G1 X94.593 Y104.981 E27.49739
G1 X94.505 Y105.267 E27.51157
G1 X94.398 Y105.569 E27.52675
G1 X94.277 Y105.873 E27.54226
G1 X94.152 Y106.154 E27.55684
G1 X94.016 Y106.429 E27.57138
G1 X93.866 Y106.706 E27.58631
G1 X93.696 Y106.991 E27.60204
G1 X93.534 Y107.241 E27.61616
G1 X93.346 Y107.504 E27.63148
G1 X93.149 Y107.759 E27.64675
G1 X92.957 Y107.989 E27.66095
G1 X92.738 Y108.23 E27.67639
G1 X92.524 Y108.448 E27.69086
G1 X92.288 Y108.669 E27.70619
G1 X92.055 Y108.871 E27.7208
G1 X91.804 Y109.072 E27.73604
G1 X91.544 Y109.262 E27.75131
G1 X91.289 Y109.434 E27.76589
G1 X91.013 Y109.604 E27.78125
G1 X90.737 Y109.76 E27.79627
G1 X90.465 Y109.899 E27.81075
G1 X90.178 Y110.033 E27.82576
G1 X89.89 Y110.152 E27.84053
G1 X89.579 Y110.266 E27.85623
G1 X89.058 Y110.436 E27.88221
G1 X87.423 Y113.269 E28.03724
G1 X87.177 Y113.665 E28.05933
G1 X86.922 Y114.021 E28.08009
G1 X86.628 Y114.381 E28.10212
G1 X86.328 Y114.699 E28.12284
G1 X86.012 Y114.997 E28.14342
G1 X85.649 Y115.294 E28.16565
G1 X85.302 Y115.543 E28.18589
G1 X84.911 Y115.786 E28.20771
G1 X84.514 Y115.998 E28.22904
G1 X84.108 Y116.182 E28.25017
G1 X83.701 Y116.336 E28.2708
G1 X83.276 Y116.465 E28.29185
G1 X82.827 Y116.569 E28.31369
G1 X82.391 Y116.641 E28.33463
G1 X81.952 Y116.684 E28.35554
G1 X81.5 Y116.7 E28.37698
G1 X81.048 Y116.684 E28.39841
G1 X80.609 Y116.641 E28.41932
G1 X80.173 Y116.569 E28.44026
G1 X79.724 Y116.465 E28.46211
G1 X79.299 Y116.336 E28.48316
G1 X78.892 Y116.182 E28.50378
G1 X78.486 Y115.998 E28.52491
G1 X78.089 Y115.786 E28.54624
G1 X77.698 Y115.543 E28.56806
G1 X77.351 Y115.294 E28.5883
G1 X76.988 Y114.997 E28.61053
G1 X76.672 Y114.699 E28.63112
G1 X76.372 Y114.381 E28.65184
G1 X76.078 Y114.021 E28.67387
G1 X75.822 Y113.664 E28.69469
G1 X75.17 Y112.599 E28.75387
G1 X75 Y112.321 E28.76271
G0 F3600 X75 Y112.221
G0 X70.222 Y114.639
G0 X69.529 Y114.821
G0 X68.4 Y114.965
G1 F2400 X68.5 Y114.951 E28.7675
G1 X68.6 Y114.965 E28.77228
G1 X68.6 Y114.951
G1 X68.6 Y114.936 E28.77299
G1 X69.359 Y114.826 E28.80934
G1 X69.646 Y114.768 E28.82322
G1 X69.928 Y114.693 E28.83705
G1 X70.208 Y114.602 E28.85101
G1 X70.482 Y114.494 E28.86496
G1 X70.747 Y114.37 E28.87883
G1 X71.007 Y114.231 E28.8928
G1 X71.257 Y114.077 E28.90672
G1 X71.496 Y113.909 E28.92057
G1 X71.726 Y113.728 E28.93444
G1 X71.947 Y113.534 E28.94838
G1 X72.156 Y113.324 E28.96242
G1 X72.349 Y113.106 E28.97622
G1 X72.532 Y112.877 E28.99011
G1 X72.7 Y112.636 E29.00404
G1 X72.85 Y112.395 E29.01749
G1 X74.827 Y108.969 E29.20496
G1 X75 Y108.67 E29.22134
G1 X75.173 Y108.969 E29.23061
G1 X77.15 Y112.395 E29.41809
G1 X77.3 Y112.636 E29.43154
G1 X77.468 Y112.877 E29.44547
G1 X77.651 Y113.106 E29.45936
G1 X77.844 Y113.324 E29.47316
G1 X78.053 Y113.534 E29.4872
G1 X78.274 Y113.728 E29.50114
G1 X78.504 Y113.909 E29.51501
G1 X78.743 Y114.077 E29.52886
G1 X78.993 Y114.231 E29.54277
G1 X79.253 Y114.37 E29.55675
G1 X79.518 Y114.494 E29.57061
G1 X79.792 Y114.602 E29.58457
G1 X80.072 Y114.693 E29.59853
G1 X80.354 Y114.768 E29.61236
G1 X80.641 Y114.826 E29.62623
G1 X81.4 Y114.936 E29.66258
G1 X81.4 Y114.951 E29.66329
G1 X81.4 Y114.965 E29.66396
G1 X81.5 Y114.951 E29.66659
G1 X81.6 Y114.965 E29.67137
G1 X81.6 Y114.951
G1 X81.6 Y114.936 E29.67173
G1 X82.359 Y114.826 E29.70808
G1 X82.646 Y114.768 E29.72195
G1 X82.928 Y114.693 E29.73579
G1 X83.208 Y114.602 E29.74974
G1 X83.482 Y114.494 E29.7637
G1 X83.747 Y114.37 E29.77756
G1 X84.007 Y114.231 E29.79154
G1 X84.257 Y114.077 E29.80545
G1 X84.496 Y113.909 E29.8193
G1 X84.726 Y113.728 E29.83317
G1 X84.947 Y113.534 E29.84711
G1 X85.156 Y113.324 E29.86115
G1 X85.349 Y113.106 E29.87495
G1 X85.532 Y112.877 E29.88885
G1 X85.7 Y112.636 E29.90277
G1 X85.85 Y112.395 E29.91622
G1 X88.095 Y108.505 E30.12909
G1 X88.152 Y108.407 E30.13447
G1 X88.041 Y107.279 E30.18819
G1 X88.426 Y108.304 E30.20681
G1 X88.466 Y108.41 E30.21153
G1 X88.519 Y108.55 E30.21862
G1 X88.52 Y108.551 E30.21869
G1 X88.592 Y108.744 E30.22845
G1 X88.782 Y108.664 E30.2347
G1 X89.571 Y108.332 E30.27527
G1 X89.982 Y108.122 E30.29715
G1 X90.377 Y107.881 E30.31908
G1 X90.751 Y107.61 E30.34097
G1 X91.104 Y107.313 E30.36283
G1 X91.433 Y106.991 E30.38465
G1 X91.738 Y106.642 E30.40662
G1 X92.016 Y106.273 E30.42852
G1 X92.264 Y105.883 E30.45042
G1 X92.481 Y105.477 E30.47224
G1 X92.669 Y105.055 E30.49414
G1 X92.823 Y104.619 E30.51605
G1 X92.944 Y104.174 E30.53791
G1 X93.029 Y103.727 E30.55948
G1 X93.062 Y103.486 E30.571
G1 X93.096 Y103.032 E30.59258
G1 X93.1 Y39.193 E33.61828
G1 X93.091 Y38.787 E33.63752
G1 X93.062 Y38.374 E33.65715
G1 X93.015 Y37.965 E33.67666
G1 X92.951 Y37.557 E33.69623
G1 X92.867 Y37.152 E33.71584
G1 X92.764 Y36.751 E33.73546
G1 X92.644 Y36.356 E33.75502
G1 X92.506 Y35.967 E33.77459
G1 X92.351 Y35.584 E33.79417
G1 X92.178 Y35.208 E33.81379
G1 X91.988 Y34.841 E33.83337
G1 X91.782 Y34.483 E33.85295
G1 X91.56 Y34.135 E33.87251
G1 X91.322 Y33.796 E33.89215
G1 X91.069 Y33.47 E33.9117
G1 X90.519 Y32.821 E33.95202
G1 X90.531 Y32.809 E33.95283
G1 X90.455 Y32.745 E33.95541
G1 X90.391 Y32.669 E33.96012
G1 X90.379 Y32.681 E33.9605
G1 X89.73 Y32.131 E34.00082
G1 X89.404 Y31.878 E34.02038
G1 X89.065 Y31.64 E34.04001
G1 X88.718 Y31.418 E34.05953
G1 X88.359 Y31.211 E34.07918
G1 X87.991 Y31.021 E34.0988
G1 X87.616 Y30.849 E34.11836
G1 X87.233 Y30.694 E34.13794
G1 X86.844 Y30.556 E34.1575
G1 X86.449 Y30.436 E34.17707
G1 X86.048 Y30.333 E34.19669
G1 X85.643 Y30.249 E34.2163
G1 X85.235 Y30.185 E34.23587
G1 X84.826 Y30.138 E34.25538
G1 X84.413 Y30.109 E34.27501
G1 X83.4 Y30.085 E34.32303
G1 X83.4 Y30.1 E34.32374
