;FLAVOR:Marlin
;TIME:981
;Filament used: 2.59904m
;Layer height: 0.3
;Generated with Cura_SteamEngine 4.0.0
M140 S60
M105
M190 S60
M104 S240
M105
M109 S240
M82 ;absolute extrusion mode
G21       ;metric values
G90       ;absolute positioning
M82       ;set extruder to absolute mode
M106      ;start with the fan on
G28 X0 Y0 ;home X/Y
G28 Z0    ;home Z
G92 E0    ;zero the extruded length
G29       ;initiate auto bed leveling sequence
G1 X150 Y145 Z15 F4000
G1 X150 Y145 Z0.30 F1000
G1 X1 Y150 Z0.25 E15.0 F2000
G1 X1 Y150 Z0.25 E14.0 F4000
G1 X1 Y1 Z0.25 F16000
G1 X1 Y1 Z0.25 E15.0 F4000
G92 E0
M107      ;start with the fan off
G92 E0
;LAYER_COUNT:56
;LAYER:0
M107
;MESH:M5StickC_OuterCover_SportSensing.stl
G0 F3600 X59.051 Y38.378 Z0.3
;TYPE:WALL-OUTER
G1 F2100 X58.812 Y38.682 E0.03509
G1 X58.451 Y39.141 E0.08808
G1 X58.113 Y39.631 E0.14209
G1 X57.808 Y40.142 E0.19609
G1 X57.535 Y40.67 E0.25002
G1 X57.297 Y41.215 E0.30398
G1 X57.093 Y41.774 E0.35798
G1 X56.926 Y42.345 E0.41196
G1 X56.795 Y42.926 E0.466
G1 X56.7 Y43.513 E0.51996
G1 X56.644 Y44.105 E0.57391
G1 X56.625 Y44.688 E0.62684
G1 X56.624 Y44.689 E0.62697
G1 X56.613 Y45.075 E0.66201
G1 X56.999 Y45.075 E0.68449
G1 X57 Y45.075 E0.68458
G1 X59.519 Y45.075 E0.91315
G1 X59.519 Y44.549 E0.96088
G1 X59.536 Y44.211 E0.99159
G1 X59.612 Y43.59 E1.04835
G1 X59.758 Y42.949 E1.10801
G1 X59.853 Y42.645 E1.13691
G1 X59.955 Y42.358 E1.16454
G1 X60.081 Y42.056 E1.19424
G1 X60.25 Y41.711 E1.22909
G1 X60.415 Y41.415 E1.25984
G1 X60.584 Y41.14 E1.28913
G1 X60.756 Y40.892 E1.31652
G1 X60.955 Y40.632 E1.34623
G1 X61.28 Y40.25 E1.39174
G1 X59.347 Y38.626 E1.62082
G1 X59.051 Y38.378 E1.64328
G0 F3600 X58.819 Y38.673
G0 X58.742 Y38.611
G0 X59.579 Y37.741
G0 X59.678 Y37.751
G1 F2100 X59.926 Y38.047 E1.67832
G1 X61.55 Y39.981 E1.90747
G1 X61.848 Y39.724 E1.94318
G1 X62.296 Y39.379 E1.99449
G1 X62.645 Y39.155 E2.03212
G1 X62.856 Y39.03 E2.05437
G1 X63.421 Y38.751 E2.11155
G1 X64.031 Y38.522 E2.17067
G1 X64.33 Y38.435 E2.19893
G1 X64.643 Y38.36 E2.22813
G1 X64.964 Y38.3 E2.25776
G1 X65.28 Y38.258 E2.28669
G1 X65.67 Y38.228 E2.32218
G1 X65.947 Y38.218 E2.34733
G1 X66.375 Y38.218 E2.38617
G1 X66.375 Y35.7 E2.61464
G1 X66.375 Y35.699 E2.61473
G1 X66.375 Y35.313 E2.64976
G1 X65.989 Y35.324 E2.67225
G1 X65.988 Y35.325 E2.67238
G1 X65.405 Y35.344 E2.7253
G1 X64.813 Y35.4 E2.77926
G1 X64.226 Y35.495 E2.83322
G1 X63.645 Y35.626 E2.88726
G1 X63.074 Y35.793 E2.94124
G1 X62.515 Y35.997 E2.99524
G1 X61.97 Y36.235 E3.0492
G1 X61.442 Y36.508 E3.10313
G1 X60.931 Y36.813 E3.15713
G1 X60.441 Y37.151 E3.21114
G1 X59.982 Y37.512 E3.26413
G1 X59.678 Y37.751 E3.28663
G0 F3600 X59.918 Y38.038
G0 X59.842 Y38.101
G0 X59.639 Y37.747
G0 X60.91 Y36.78
G0 X62.501 Y35.96
G0 X64.219 Y35.456
G0 X65.177 Y35.335
G0 X67.555 Y35.255
G0 X67.625 Y35.325
G1 F2100 X67.625 Y37.843 E3.51511
G1 X67.625 Y38.218 E3.54913
G1 X68 Y38.218 E3.57114
G1 X82.375 Y38.217 E4.87549
G1 X82.375 Y35.325 E5.13791
G1 X67.625 Y35.325 E6.47629
G0 F3600 X67.625 Y35.7
G0 X67.525 Y35.7
G0 X66.403 Y38.246
G0 X59.547 Y45.103
G0 X56.555 Y46.255
G0 X56.625 Y46.325
G1 F2100 X56.625 Y71.375 E8.74927
G1 X59.518 Y71.375 E9.01178
G1 X59.519 Y46.7 E11.25073
G1 X59.519 Y46.325 E11.28476
G1 X59.144 Y46.325 E11.30676
G1 X56.625 Y46.325 E11.53533
G0 F3600 X56.625 Y46.7
G0 X56.525 Y46.7
G0 X56.597 Y46.297
G0 X59.547 Y46.297
G0 X62.216 Y51.367
G0 X62.282 Y51.293
G1 F2100 X62.95 Y51.219 E11.59631
G1 X63.093 Y51.221 E11.60929
G1 X63.244 Y51.236 E11.62306
G1 X63.484 Y51.301 E11.64562
G1 X63.605 Y51.349 E11.65743
G1 X63.739 Y51.416 E11.67103
G1 X63.84 Y51.48 E11.68188
G1 X63.964 Y51.574 E11.696
G1 X64.066 Y51.668 E11.70858
G1 X64.216 Y51.855 E11.73033
G1 X64.291 Y51.972 E11.74294
G1 X64.35 Y52.088 E11.75475
G1 X64.432 Y52.32 E11.77708
G1 X64.459 Y52.441 E11.78833
G1 X64.473 Y52.553 E11.79857
G1 X64.481 Y52.701 E11.81202
G1 X64.48 Y56.754 E12.17978
G1 X64.454 Y56.988 E12.20114
G1 X64.419 Y57.128 E12.21424
G1 X64.37 Y57.267 E12.22761
G1 X64.273 Y57.459 E12.24713
G1 X64.116 Y57.673 E12.27121
G1 X64.007 Y57.786 E12.28546
G1 X63.931 Y57.852 E12.29459
G1 X63.816 Y57.936 E12.30752
G1 X63.624 Y58.044 E12.3275
G1 X63.481 Y58.101 E12.34147
G1 X63.342 Y58.141 E12.3546
G1 X63.218 Y58.165 E12.36606
G1 X63.088 Y58.179 E12.37792
G1 X62.991 Y58.182 E12.38673
G1 X62.331 Y58.118 E12.44689
G1 X62.282 Y58.113 E12.45136
G1 X62.282 Y58.182
G1 X62.282 Y58.623 E12.47886
G1 X61.68 Y58.631 E12.53349
G1 X61.453 Y58.692 E12.55482
G1 X61.245 Y58.818 E12.57688
G1 X61.084 Y58.993 E12.59846
G1 X60.98 Y59.191 E12.61875
G1 X60.943 Y59.32 E12.63093
G1 X60.927 Y59.44 E12.64191
G1 X60.926 Y63.572 E13.01684
G1 X60.97 Y63.786 E13.03667
G1 X61.048 Y63.949 E13.05306
G1 X61.128 Y64.064 E13.06578
G1 X61.283 Y64.207 E13.08491
G1 X61.405 Y64.283 E13.09795
G1 X61.608 Y64.355 E13.1175
G1 X61.738 Y64.373 E13.12941
G1 X62.283 Y64.378 E13.17886
G1 X62.283 Y78.624 E14.47151
G1 X61.681 Y78.631 E14.52614
G1 X61.453 Y78.692 E14.54755
G1 X61.245 Y78.818 E14.56962
G1 X61.091 Y78.985 E14.59023
G1 X61.024 Y79.095 E14.60192
G1 X60.977 Y79.202 E14.61252
G1 X60.941 Y79.322 E14.62389
G1 X60.927 Y79.443 E14.63495
G1 X60.93 Y83.618 E15.01378
G1 X60.992 Y83.847 E15.0353
G1 X61.118 Y84.055 E15.05737
G1 X61.283 Y84.207 E15.07772
G1 X61.405 Y84.283 E15.09077
G1 X61.608 Y84.355 E15.11031
G1 X61.738 Y84.373 E15.12222
G1 X62.283 Y84.378 E15.17167
G1 X62.285 Y100.391 E16.62466
G1 X62.296 Y100.619 E16.64537
G1 X62.346 Y100.98 E16.67844
G1 X62.425 Y101.318 E16.70994
G1 X62.536 Y101.647 E16.74144
G1 X62.683 Y101.981 E16.77455
G1 X62.796 Y102.185 E16.79571
G1 X62.994 Y102.487 E16.82848
G1 X63.212 Y102.76 E16.86018
G1 X63.468 Y103.021 E16.89335
G1 X63.733 Y103.247 E16.92496
G1 X63.999 Y103.432 E16.95436
G1 X64.213 Y103.56 E16.97698
G1 X64.522 Y103.713 E17.00827
G1 X64.737 Y103.796 E17.02918
G1 X65.065 Y103.899 E17.06038
G1 X65.402 Y103.968 E17.09159
G1 X65.591 Y103.994 E17.1089
G1 X65.886 Y104.013 E17.13572
G1 X65.951 Y104.017 E17.14163
G1 X66.533 Y104.007 E17.19445
G1 X66.597 Y104.005 E17.20026
G1 X66.589 Y103.938
G1 X66.581 Y103.874 E17.20579
G1 X66.522 Y103.406 E17.24801
G1 X66.518 Y103.264 E17.2609
G1 X66.531 Y103.104 E17.27547
G1 X66.572 Y102.903 E17.29408
G1 X66.647 Y102.695 E17.31415
G1 X66.763 Y102.483 E17.33607
G1 X66.836 Y102.384 E17.34724
G1 X66.935 Y102.269 E17.361
G1 X67.037 Y102.172 E17.37378
G1 X67.151 Y102.085 E17.38679
G1 X67.352 Y101.967 E17.40794
G1 X67.48 Y101.911 E17.42062
G1 X67.61 Y101.869 E17.43301
G1 X67.843 Y101.826 E17.45451
G1 X67.986 Y101.817 E17.46751
G1 X81.978 Y101.817 E18.73711
G1 X82.27 Y101.842 E18.76371
G1 X82.491 Y101.902 E18.78449
G1 X82.614 Y101.95 E18.79647
G1 X82.832 Y102.074 E18.81922
G1 X82.942 Y102.156 E18.83167
G1 X83.052 Y102.256 E18.84516
G1 X83.139 Y102.353 E18.85699
G1 X83.272 Y102.541 E18.87788
G1 X83.339 Y102.666 E18.89075
G1 X83.396 Y102.8 E18.90396
G1 X83.437 Y102.931 E18.91642
G1 X83.467 Y103.084 E18.93057
G1 X83.479 Y103.205 E18.9416
G1 X83.475 Y103.436 E18.96256
G1 X83.468 Y103.489 E18.96741
G1 X83.42 Y103.851 E19.00055
G1 X83.409 Y103.94 E19.00868
G1 X83.401 Y103.997 E19.01391
G1 X83.455 Y103.998 E19.01523
G1 X84.004 Y104.018 E19.05079
G1 X84.094 Y104.013 E19.05834
G1 X84.403 Y103.995 E19.08643
G1 X84.744 Y103.943 E19.11773
G1 X85.077 Y103.859 E19.14889
G1 X85.295 Y103.784 E19.16981
G1 X85.625 Y103.643 E19.20237
G1 X85.928 Y103.479 E19.23364
G1 X86.23 Y103.275 E19.2667
G1 X86.496 Y103.056 E19.29797
G1 X86.659 Y102.897 E19.31863
G1 X86.887 Y102.644 E19.34953
G1 X87.09 Y102.364 E19.38091
G1 X87.278 Y102.054 E19.41381
G1 X87.417 Y101.763 E19.44307
G1 X87.508 Y101.532 E19.4656
G1 X87.607 Y101.203 E19.49678
G1 X87.677 Y100.844 E19.52997
G1 X87.709 Y100.525 E19.55906
G1 X87.716 Y100.306 E19.57894
G1 X87.717 Y84.376 E21.02439
G1 X88.319 Y84.371 E21.07902
G1 X88.548 Y84.308 E21.10057
G1 X88.755 Y84.182 E21.12256
G1 X88.909 Y84.015 E21.14317
G1 X88.976 Y83.905 E21.15486
G1 X89.024 Y83.796 E21.16566
G1 X89.057 Y83.68 E21.17661
G1 X89.073 Y83.56 E21.18759
G1 X89.07 Y79.382 E21.56669
G1 X89.008 Y79.153 E21.58822
G1 X88.882 Y78.945 E21.61029
G1 X88.717 Y78.793 E21.63064
G1 X88.595 Y78.717 E21.64369
G1 X88.392 Y78.645 E21.66323
G1 X88.262 Y78.627 E21.67514
G1 X87.717 Y78.622 E21.72459
G1 X87.716 Y64.377 E23.01715
G1 X88.32 Y64.37 E23.07196
G1 X88.548 Y64.308 E23.0934
G1 X88.755 Y64.182 E23.11539
G1 X88.907 Y64.017 E23.13575
G1 X88.976 Y63.906 E23.14761
G1 X89.024 Y63.796 E23.1585
G1 X89.057 Y63.68 E23.16944
G1 X89.073 Y63.56 E23.18042
G1 X89.074 Y59.441 E23.55417
G1 X89.056 Y59.309 E23.56626
G1 X88.98 Y59.095 E23.58687
G1 X88.851 Y58.914 E23.60703
G1 X88.746 Y58.813 E23.62025
G1 X88.55 Y58.694 E23.64106
G1 X88.337 Y58.635 E23.66112
G1 X88.216 Y58.625 E23.67213
G1 X87.718 Y58.624 E23.71732
G1 X87.718 Y58.18 E23.75761
G1 X87.718 Y58.096 E23.76523
G1 X87.652 Y58.104
G1 X87.067 Y58.18 E23.80438
G1 X86.874 Y58.176 E23.8219
G1 X86.693 Y58.149 E23.8385
G1 X86.55 Y58.111 E23.85193
G1 X86.42 Y58.063 E23.8645
G1 X86.298 Y58.004 E23.8768
G1 X86.18 Y57.934 E23.88925
G1 X86.043 Y57.832 E23.90475
G1 X85.881 Y57.669 E23.9256
G1 X85.733 Y57.469 E23.94818
G1 X85.624 Y57.248 E23.97054
G1 X85.577 Y57.113 E23.98351
G1 X85.547 Y56.99 E23.995
G1 X85.524 Y56.846 E24.00823
G1 X85.52 Y52.647 E24.38924
G1 X85.546 Y52.412 E24.41069
G1 X85.583 Y52.262 E24.42471
G1 X85.628 Y52.136 E24.43685
G1 X85.69 Y52.005 E24.45
G1 X85.81 Y51.819 E24.47008
G1 X85.886 Y51.725 E24.48105
G1 X85.994 Y51.613 E24.49517
G1 X86.17 Y51.474 E24.51552
G1 X86.386 Y51.352 E24.53803
G1 X86.524 Y51.297 E24.55151
G1 X86.631 Y51.265 E24.56164
G1 X86.789 Y51.234 E24.57625
G1 X86.89 Y51.224 E24.58546
G1 X87.041 Y51.22 E24.59917
G1 X87.718 Y51.289 E24.66092
G1 X87.718 Y51.22
G1 X87.715 Y44.589 E25.2626
G1 X87.695 Y44.292 E25.28961
G1 X87.646 Y43.969 E25.31925
G1 X87.555 Y43.611 E25.35277
G1 X87.429 Y43.267 E25.38601
G1 X87.273 Y42.939 E25.41897
G1 X87.124 Y42.683 E25.44584
G1 X86.949 Y42.438 E25.47316
G1 X86.741 Y42.187 E25.50274
G1 X86.48 Y41.93 E25.53598
G1 X86.228 Y41.724 E25.56551
G1 X86.006 Y41.57 E25.59003
G1 X85.69 Y41.388 E25.62312
G1 X85.394 Y41.253 E25.65264
G1 X85.217 Y41.187 E25.66978
G1 X84.938 Y41.102 E25.69624
G1 X84.644 Y41.039 E25.72353
G1 X84.324 Y40.996 E25.75282
G1 X84.061 Y40.982 E25.77672
G1 X65.967 Y40.982 E27.41853
G1 X65.726 Y40.993 E27.44042
G1 X65.367 Y41.037 E27.47324
G1 X65.047 Y41.106 E27.50294
G1 X64.768 Y41.192 E27.52943
G1 X64.591 Y41.259 E27.54661
G1 X64.319 Y41.384 E27.57377
G1 X64.037 Y41.543 E27.60314
G1 X63.794 Y41.708 E27.6298
G1 X63.559 Y41.895 E27.65705
G1 X63.322 Y42.121 E27.68676
G1 X63.081 Y42.397 E27.72001
G1 X62.87 Y42.696 E27.75322
G1 X62.72 Y42.949 E27.7799
G1 X62.589 Y43.221 E27.8073
G1 X62.461 Y43.562 E27.84035
G1 X62.374 Y43.88 E27.87026
G1 X62.311 Y44.242 E27.9036
G1 X62.287 Y44.566 E27.93308
G1 X62.283 Y51.218 E28.53667
G1 X62.282 Y51.293
G0 F3600 X62.654 Y51.252
G0 X62.664 Y51.351
G0 X59.532 Y64.392
G0 X59.546 Y71.403
G0 X56.555 Y73.555
G0 X56.625 Y73.625
G1 F2100 X56.625 Y98.675 E30.80965
G1 X59.516 Y98.675 E31.07198
G1 X59.517 Y74 E33.31093
G1 X59.517 Y73.625 E33.34496
G1 X59.142 Y73.625 E33.36696
G1 X56.625 Y73.625 E33.59535
G0 F3600 X56.625 Y74
G0 X56.525 Y74
G0 X56.609 Y100.956
G0 X56.791 Y102.257
G0 X57.153 Y103.519
G0 X57.687 Y104.719
G0 X58.081 Y105.35
G0 X59.04 Y106.721
G0 X59.05 Y106.622
G1 F2100 X59.346 Y106.374 E33.63039
G1 X61.276 Y104.754 E33.85903
G1 X61.285 Y104.746 E33.86012
G1 X61.003 Y104.429 E33.88481
G1 X60.819 Y104.196 E33.91175
G1 X60.632 Y103.933 E33.94103
G1 X60.449 Y103.648 E33.97176
G1 X60.289 Y103.37 E34.00087
G1 X60.149 Y103.094 E34.02895
G1 X60.016 Y102.793 E34.05881
G1 X59.906 Y102.509 E34.08644
G1 X59.798 Y102.187 E34.11726
G1 X59.717 Y101.896 E34.14467
G1 X59.642 Y101.564 E34.17555
G1 X59.587 Y101.255 E34.20403
G1 X59.549 Y100.945 E34.23237
G1 X59.525 Y100.619 E34.26203
G1 X59.506 Y99.925 E34.32503
G1 X57 Y99.925 E34.55242
G1 X56.999 Y99.925 E34.55251
G1 X56.612 Y99.925 E34.58762
G1 X56.624 Y100.312 E34.61016
G1 X56.625 Y100.313 E34.61029
G1 X56.648 Y100.954 E34.66849
G1 X56.716 Y101.605 E34.72788
G1 X56.83 Y102.249 E34.78722
G1 X56.988 Y102.884 E34.8466
G1 X57.19 Y103.506 E34.90594
G1 X57.435 Y104.113 E34.96533
G1 X57.722 Y104.701 E35.0247
G1 X58.05 Y105.268 E35.08414
G1 X58.415 Y105.811 E35.14351
G1 X58.812 Y106.318 E35.20194
G1 X59.05 Y106.622 E35.22438
G0 F3600 X59.337 Y106.382
G0 X59.678 Y107.25
G1 F2100 X59.982 Y107.488 E35.25941
G1 X60.441 Y107.849 E35.3124
G1 X60.931 Y108.187 E35.36641
G1 X61.442 Y108.492 E35.42041
G1 X61.97 Y108.765 E35.47434
G1 X62.515 Y109.003 E35.5283
G1 X63.074 Y109.207 E35.5823
G1 X63.645 Y109.374 E35.63628
G1 X64.226 Y109.505 E35.69032
G1 X64.813 Y109.6 E35.74428
G1 X65.405 Y109.656 E35.79824
G1 X65.988 Y109.675 E35.85116
G1 X65.989 Y109.676 E35.85129
G1 X66.375 Y109.687 E35.88633
G1 X66.375 Y109.301 E35.90881
G1 X66.375 Y109.3 E35.9089
G1 X66.375 Y106.779 E36.13765
G1 X65.752 Y106.779 E36.19418
G1 X65.448 Y106.76 E36.22182
G1 X65.111 Y106.722 E36.25259
G1 X64.796 Y106.671 E36.28155
G1 X64.497 Y106.607 E36.30929
G1 X64.18 Y106.521 E36.3391
G1 X63.872 Y106.423 E36.36842
G1 X63.583 Y106.315 E36.39642
G1 X63.27 Y106.181 E36.42731
G1 X62.992 Y106.044 E36.45543
G1 X62.711 Y105.886 E36.48469
G1 X62.443 Y105.719 E36.51334
G1 X62.18 Y105.539 E36.54226
G1 X61.926 Y105.344 E36.57131
G1 X61.547 Y105.022 E36.61644
G1 X59.926 Y106.954 E36.84527
G1 X59.678 Y107.25 E36.86772
G0 F3600 X59.973 Y107.481
G0 X59.911 Y107.558
G0 X61.423 Y108.526
G0 X63.062 Y109.245
G0 X64.808 Y109.639
G0 X67.555 Y109.745
G0 X67.625 Y109.675
G1 F2100 X82.375 Y109.675 E38.2061
G1 X82.375 Y106.783 E38.46852
G1 X68 Y106.78 E39.77287
G1 X67.625 Y106.78 E39.8069
G1 X67.625 Y107.155 E39.8289
G1 X67.625 Y109.675 E40.05756
G0 F3600 X68 Y109.675
G0 X68 Y109.775
G0 X84.597 Y109.695
G0 X86.365 Y109.412
G0 X88.047 Y108.801
G0 X89.289 Y108.056
G0 X90.421 Y107.26
G0 X90.322 Y107.25
G1 F2100 X90.074 Y106.954 E40.0926
G1 X88.459 Y105.029 E40.3206
G1 X87.944 Y105.444 E40.38062
G1 X87.696 Y105.627 E40.40858
G1 X87.421 Y105.806 E40.43835
G1 X87.155 Y105.962 E40.46634
G1 X86.866 Y106.114 E40.49596
G1 X86.574 Y106.249 E40.52515
G1 X86.268 Y106.373 E40.55511
G1 X85.976 Y106.475 E40.58318
G1 X85.664 Y106.567 E40.61269
G1 X85.357 Y106.64 E40.64133
G1 X85.039 Y106.699 E40.67067
G1 X84.721 Y106.742 E40.69979
G1 X84.399 Y106.769 E40.72911
G1 X83.625 Y106.797 E40.79939
G1 X83.625 Y109.3 E41.02651
G1 X83.625 Y109.301 E41.0266
G1 X83.625 Y109.687 E41.06162
G1 X84.011 Y109.676 E41.08411
G1 X84.012 Y109.675 E41.08424
G1 X84.595 Y109.656 E41.13717
G1 X85.187 Y109.6 E41.19112
G1 X85.774 Y109.505 E41.24508
G1 X86.355 Y109.374 E41.29912
G1 X86.926 Y109.207 E41.3531
G1 X87.485 Y109.003 E41.4071
G1 X88.03 Y108.765 E41.46106
G1 X88.558 Y108.492 E41.51499
G1 X89.069 Y108.187 E41.56899
G1 X89.559 Y107.849 E41.62301
G1 X90.018 Y107.488 E41.67599
G1 X90.322 Y107.25 E41.69843
G0 F3600 X90.082 Y106.963
G0 X90.95 Y106.622
G1 F2100 X91.188 Y106.318 E41.73347
G1 X91.549 Y105.859 E41.78645
G1 X91.887 Y105.369 E41.84047
G1 X92.192 Y104.858 E41.89446
G1 X92.465 Y104.33 E41.9484
G1 X92.703 Y103.785 E42.00236
G1 X92.907 Y103.226 E42.05635
G1 X93.074 Y102.655 E42.11034
G1 X93.205 Y102.074 E42.16438
G1 X93.3 Y101.487 E42.21833
G1 X93.356 Y100.895 E42.27229
G1 X93.375 Y100.312 E42.32522
G1 X93.376 Y100.311 E42.32535
G1 X93.387 Y99.925 E42.36039
G1 X93.001 Y99.925 E42.38287
G1 X93 Y99.925 E42.38296
G1 X90.481 Y99.925 E42.61153
G1 X90.481 Y100.458 E42.65989
G1 X90.446 Y100.96 E42.70555
G1 X90.396 Y101.351 E42.74132
G1 X90.324 Y101.723 E42.7757
G1 X90.243 Y102.043 E42.80565
