;FLAVOR:Marlin
;TIME:1456
;Filament used: 2.54162m
;Layer height: 0.3
;Generated with Cura_SteamEngine 4.0.0
M140 S50
M105
M190 S50
M104 S230
M105
M109 S230
M82 ;absolute extrusion mode
G21       ;metric values
G90       ;absolute positioning
M82       ;set extruder to absolute mode
M106      ;start with the fan on
G28 X0 Y0 ;home X/Y
G28 Z0    ;home Z
G92 E0    ;zero the extruded length
G29       ;initiate auto bed leveling sequence
G1 X150 Y145 Z15 F4000
G1 X150 Y145 Z0.30 F1000
G1 X1 Y150 Z0.25 E15.0 F2000
G1 X1 Y150 Z0.25 E14.0 F4000
G1 X1 Y1 Z0.25 F16000
G1 X1 Y1 Z0.25 E15.0 F4000
G92 E0
M107      ;start with the fan off
G92 E0
;LAYER_COUNT:56
;LAYER:0
M107
;MESH:M5StickC_OuterCover.stl
G0 F3600 X66.4 Y42.241 Z0.3
;TYPE:WALL-INNER
G1 F2400 X84.228 Y42.246 E0.84497
G1 X84.788 Y42.294 E0.87161
G1 X85.159 Y42.351 E0.8894
G1 X85.454 Y42.413 E0.90369
G1 X85.747 Y42.49 E0.91805
G1 X86.274 Y42.672 E0.94447
G1 X86.697 Y42.856 E0.96633
G1 X86.904 Y42.956 E0.97723
G1 X87.176 Y43.109 E0.99202
G1 X87.431 Y43.268 E1.00626
G1 X87.688 Y43.446 E1.02108
G1 X87.943 Y43.642 E1.03632
G1 X88.4 Y44.031 E1.06477
G1 X88.819 Y44.509 E1.09489
G1 X89.004 Y44.743 E1.10903
G1 X89.195 Y45.012 E1.12467
G1 X89.348 Y45.249 E1.13804
G1 X89.511 Y45.534 E1.1536
G1 X89.646 Y45.797 E1.16761
G1 X89.771 Y46.082 E1.18236
G1 X89.887 Y46.381 E1.19756
G1 X89.989 Y46.685 E1.21276
G1 X90.063 Y46.955 E1.22603
G1 X90.137 Y47.277 E1.24169
G1 X90.192 Y47.59 E1.25675
G1 X90.229 Y47.887 E1.27093
G1 X90.25 Y48.176 E1.28467
G1 X90.259 Y48.5 E1.30003
G1 X90.257 Y93.569 E3.43611
G1 X90.235 Y93.889 E3.45131
G1 X90.204 Y94.077 E3.46034
G1 X90.13 Y94.395 E3.47581
G1 X90.021 Y94.716 E3.49188
G1 X89.978 Y94.821 E3.49726
G1 X89.83 Y95.114 E3.51282
G1 X89.653 Y95.39 E3.52836
G1 X89.541 Y95.537 E3.53712
G1 X89.34 Y95.768 E3.55163
G1 X89.217 Y95.886 E3.55971
G1 X88.954 Y96.104 E3.5759
G1 X88.688 Y96.284 E3.59112
G1 X88.443 Y96.421 E3.60442
G1 X88.257 Y96.504 E3.61408
G1 X87.699 Y96.72 E3.64244
G1 X87.022 Y96.757 E3.67457
G1 X86.226 Y96.757 E3.7123
G1 X86.192 Y96.816 E3.71553
G1 X86.159 Y96.873 E3.71865
G1 X86.126 Y96.816 E3.71926
G1 X86.092 Y96.758 E3.72033
G1 X73.227 Y96.759 E4.33007
G1 X73.194 Y96.817 E4.33323
G1 X73.16 Y96.875 E4.33642
G1 X73.127 Y96.818 E4.33701
G1 X73.092 Y96.758 E4.33813
G1 X63.909 Y96.759 E4.77336
G1 X63.876 Y96.816 E4.77649
G1 X63.842 Y96.874 E4.77967
G1 X63.809 Y96.817 E4.78026
G1 X63.776 Y96.76 E4.78124
G1 X62.841 Y96.752 E4.82556
G1 X62.192 Y96.69 E4.85646
G1 X61.55 Y96.412 E4.88962
G1 X61.235 Y96.237 E4.9067
G1 X60.957 Y96.037 E4.92293
G1 X60.713 Y95.82 E4.9384
G1 X60.535 Y95.625 E4.95092
G1 X60.442 Y95.511 E4.95789
G1 X60.216 Y95.19 E4.9765
G1 X60.063 Y94.91 E4.99162
G1 X59.96 Y94.661 E5.00439
G1 X59.905 Y94.508 E5.0121
G1 X59.837 Y94.271 E5.02378
G1 X59.802 Y94.11 E5.03159
G1 X59.758 Y93.813 E5.04582
G1 X59.741 Y93.49 E5.06115
G1 X59.744 Y48.356 E7.20031
G1 X59.778 Y47.857 E7.22401
G1 X59.824 Y47.497 E7.24122
G1 X59.917 Y47.042 E7.26323
G1 X59.995 Y46.745 E7.27778
G1 X60.063 Y46.525 E7.28869
G1 X60.17 Y46.224 E7.30383
G1 X60.281 Y45.959 E7.31745
G1 X60.428 Y45.652 E7.33358
G1 X60.575 Y45.38 E7.34824
G1 X60.73 Y45.124 E7.36242
G1 X60.899 Y44.875 E7.37668
G1 X61.09 Y44.619 E7.39182
G1 X61.491 Y44.133 E7.42169
G1 X61.948 Y43.732 E7.4505
G1 X62.183 Y43.542 E7.46483
G1 X62.44 Y43.353 E7.47995
G1 X62.683 Y43.194 E7.49371
G1 X62.975 Y43.021 E7.50979
G1 X63.22 Y42.893 E7.5229
G1 X63.513 Y42.759 E7.53817
G1 X63.808 Y42.639 E7.55326
G1 X64.092 Y42.541 E7.5675
G1 X64.389 Y42.454 E7.58217
G1 X64.701 Y42.378 E7.59739
G1 X64.998 Y42.323 E7.6117
G1 X65.308 Y42.281 E7.62653
G1 X65.596 Y42.255 E7.64024
G1 X66.4 Y42.229 E7.67836
G1 X66.4 Y42.241 E7.67893
G0 F3600 X66.33 Y42.311
G0 X63.943 Y48.023
G0 X63.928 Y48.143
G0 X63.83 Y90.645
G0 X63.931 Y90.645
G1 F2400 X63.958 Y90.858 E7.68911
G1 X64.003 Y91.057 E7.69878
G1 X64.068 Y91.251 E7.70847
G1 X64.15 Y91.436 E7.71806
G1 X64.252 Y91.616 E7.72787
G1 X64.374 Y91.786 E7.73779
G1 X64.507 Y91.938 E7.74736
G1 X64.656 Y92.08 E7.75712
G1 X64.821 Y92.205 E7.76693
G1 X64.992 Y92.312 E7.77649
G1 X65.179 Y92.404 E7.78636
G1 X65.372 Y92.475 E7.79611
G1 X65.566 Y92.527 E7.80563
G1 X65.769 Y92.561 E7.81539
G1 X65.964 Y92.573 E7.82465
G1 X84.017 Y92.574 E8.68028
G1 X84.183 Y92.564 E8.68816
G1 X84.382 Y92.538 E8.69767
G1 X84.58 Y92.49 E8.70733
G1 X84.775 Y92.424 E8.71709
G1 X84.961 Y92.336 E8.72684
G1 X85.136 Y92.234 E8.73644
G1 X85.305 Y92.111 E8.74635
G1 X85.456 Y91.974 E8.75601
G1 X85.594 Y91.825 E8.76564
G1 X85.719 Y91.659 E8.77548
G1 X85.824 Y91.484 E8.78516
G1 X85.914 Y91.298 E8.79495
G1 X85.982 Y91.106 E8.8046
G1 X86.032 Y90.909 E8.81424
G1 X86.063 Y90.705 E8.82402
G1 X86.073 Y90.515 E8.83303
G1 X86.071 Y48.4 E10.8291
G1 X86.051 Y48.194 E10.83891
G1 X86.01 Y47.99 E10.84878
G1 X85.95 Y47.797 E10.85836
G1 X85.872 Y47.608 E10.86805
G1 X85.773 Y47.426 E10.87787
G1 X85.658 Y47.257 E10.88755
G1 X85.529 Y47.101 E10.89715
G1 X85.383 Y46.954 E10.90697
G1 X85.221 Y46.825 E10.91678
G1 X85.053 Y46.714 E10.92633
G1 X84.868 Y46.617 E10.93623
G1 X84.678 Y46.542 E10.94591
G1 X84.483 Y46.484 E10.95555
G1 X84.282 Y46.446 E10.96525
G1 X84.081 Y46.428 E10.97481
G1 X65.877 Y46.43 E11.8376
G1 X65.668 Y46.453 E11.84757
G1 X65.468 Y46.497 E11.85727
G1 X65.274 Y46.557 E11.8669
G1 X65.083 Y46.64 E11.87677
G1 X64.904 Y46.74 E11.88649
G1 X64.737 Y46.857 E11.89615
G1 X64.582 Y46.988 E11.90577
G1 X64.437 Y47.137 E11.91562
G1 X64.31 Y47.3 E11.92542
G1 X64.201 Y47.471 E11.93503
G1 X64.107 Y47.653 E11.94474
G1 X64.033 Y47.846 E11.95453
G1 X63.979 Y48.041 E11.96412
G1 X63.941 Y48.244 E11.97391
G1 X63.928 Y48.444 E11.98341
G1 X63.931 Y90.645 E13.98356
G0 F3600 X63.83 Y90.645
G0 X59.769 Y92.287
G0 X56.872 Y92.287
G0 X56.877 Y93.955
G0 X57.137 Y95.323
G0 X57.698 Y96.597
G0 X58.389 Y97.553
G0 X65.245 Y104.455
G0 X66.231 Y105.103
G0 X67.228 Y105.464
G0 X68.4 Y105.665
G1 F2400 X68.5 Y105.651 E13.98834
G1 X68.6 Y105.665 E13.99313
G1 X68.6 Y105.651
G1 X68.6 Y105.636 E13.99384
G1 X69.359 Y105.526 E14.03019
G1 X69.646 Y105.468 E14.04407
G1 X69.928 Y105.393 E14.0579
G1 X70.208 Y105.302 E14.07185
G1 X70.482 Y105.194 E14.08581
G1 X70.747 Y105.07 E14.09967
G1 X71.007 Y104.931 E14.11365
G1 X71.257 Y104.777 E14.12756
G1 X71.496 Y104.609 E14.14141
G1 X71.726 Y104.428 E14.15528
G1 X71.947 Y104.234 E14.16922
G1 X72.156 Y104.024 E14.18326
G1 X72.349 Y103.806 E14.19706
G1 X72.532 Y103.577 E14.21096
G1 X72.7 Y103.336 E14.22488
G1 X72.85 Y103.095 E14.23833
G1 X74.827 Y99.669 E14.42581
G1 X75 Y99.37 E14.44218
G1 X75.173 Y99.669 E14.45146
G1 X77.15 Y103.095 E14.63893
G1 X77.3 Y103.336 E14.65239
G1 X77.468 Y103.577 E14.66631
G1 X77.651 Y103.806 E14.6802
G1 X77.844 Y104.024 E14.694
G1 X78.053 Y104.234 E14.70804
G1 X78.274 Y104.428 E14.72198
G1 X78.504 Y104.609 E14.73585
G1 X78.743 Y104.777 E14.7497
G1 X78.993 Y104.931 E14.76362
G1 X79.253 Y105.07 E14.77759
G1 X79.518 Y105.194 E14.79146
G1 X79.792 Y105.302 E14.80542
G1 X80.072 Y105.393 E14.81937
G1 X80.354 Y105.468 E14.8332
G1 X80.641 Y105.526 E14.84708
G1 X81.4 Y105.636 E14.88343
G1 X81.4 Y105.651 E14.88414
G1 X81.4 Y105.665 E14.8848
G1 X81.5 Y105.651 E14.88743
G1 X81.6 Y105.665 E14.89222
G1 X81.6 Y105.651
G1 X81.6 Y105.636 E14.89257
G1 X82.359 Y105.526 E14.92892
G1 X82.646 Y105.468 E14.9428
G1 X82.928 Y105.393 E14.95663
G1 X83.208 Y105.302 E14.97058
G1 X83.482 Y105.194 E14.98454
G1 X83.747 Y105.07 E14.99841
G1 X84.007 Y104.931 E15.01238
G1 X84.257 Y104.777 E15.0263
G1 X84.496 Y104.609 E15.04014
G1 X84.726 Y104.428 E15.05402
G1 X84.947 Y104.234 E15.06795
G1 X85.156 Y104.024 E15.082
G1 X85.349 Y103.806 E15.0958
G1 X85.532 Y103.577 E15.10969
G1 X85.7 Y103.336 E15.12361
G1 X85.85 Y103.095 E15.13707
G1 X88.095 Y99.205 E15.34994
G1 X88.152 Y99.107 E15.35531
G1 X88.041 Y97.979 E15.40903
G1 X88.426 Y99.004 E15.42766
G1 X88.466 Y99.11 E15.43237
G1 X88.519 Y99.25 E15.43947
G1 X88.52 Y99.251 E15.43953
G1 X88.592 Y99.444 E15.4493
G1 X88.782 Y99.364 E15.45555
G1 X89.571 Y99.032 E15.49612
G1 X89.982 Y98.822 E15.51799
G1 X90.377 Y98.581 E15.53992
G1 X90.751 Y98.31 E15.56181
G1 X91.104 Y98.013 E15.58368
G1 X91.433 Y97.691 E15.6055
G1 X91.738 Y97.342 E15.62746
G1 X92.016 Y96.973 E15.64936
G1 X92.264 Y96.583 E15.67127
G1 X92.481 Y96.177 E15.69308
G1 X92.669 Y95.755 E15.71498
G1 X92.823 Y95.319 E15.7369
G1 X92.944 Y94.874 E15.75875
G1 X93.029 Y94.427 E15.78032
G1 X93.062 Y94.186 E15.79185
G1 X93.096 Y93.732 E15.81343
G1 X93.1 Y48.493 E17.95756
G1 X93.091 Y48.087 E17.97681
G1 X93.062 Y47.674 E17.99643
G1 X93.015 Y47.265 E18.01594
G1 X92.951 Y46.857 E18.03552
G1 X92.867 Y46.452 E18.05512
G1 X92.764 Y46.051 E18.07474
G1 X92.644 Y45.656 E18.09431
G1 X92.506 Y45.267 E18.11387
G1 X92.351 Y44.884 E18.13345
G1 X92.178 Y44.508 E18.15307
G1 X91.988 Y44.141 E18.17266
G1 X91.782 Y43.783 E18.19223
G1 X91.56 Y43.435 E18.2118
G1 X91.322 Y43.096 E18.23143
G1 X91.069 Y42.77 E18.25099
G1 X90.519 Y42.121 E18.29131
G1 X90.531 Y42.109 E18.29211
G1 X90.455 Y42.045 E18.29469
G1 X90.391 Y41.969 E18.2994
G1 X90.379 Y41.981 E18.29978
G1 X89.73 Y41.431 E18.3401
G1 X89.404 Y41.178 E18.35966
G1 X89.065 Y40.94 E18.37929
G1 X88.718 Y40.718 E18.39882
G1 X88.359 Y40.511 E18.41846
G1 X87.991 Y40.321 E18.43809
G1 X87.616 Y40.149 E18.45764
G1 X87.233 Y39.994 E18.47722
G1 X86.844 Y39.856 E18.49679
G1 X86.449 Y39.736 E18.51635
G1 X86.048 Y39.633 E18.53598
G1 X85.643 Y39.549 E18.55558
G1 X85.235 Y39.485 E18.57515
G1 X84.826 Y39.438 E18.59467
G1 X84.413 Y39.409 E18.61429
G1 X83.4 Y39.385 E18.66231
G1 X83.4 Y39.4 E18.66303
G1 X66.6 Y39.4 E19.45927
G1 X66.6 Y39.385 E19.45998
G1 X65.587 Y39.409 E19.50801
G1 X65.174 Y39.438 E19.52763
G1 X64.765 Y39.485 E19.54714
G1 X64.357 Y39.549 E19.56672
G1 X63.952 Y39.633 E19.58632
G1 X63.551 Y39.736 E19.60594
G1 X63.156 Y39.856 E19.62551
G1 X62.767 Y39.994 E19.64507
G1 X62.384 Y40.149 E19.66466
G1 X62.009 Y40.321 E19.68421
G1 X61.641 Y40.511 E19.70384
G1 X61.282 Y40.718 E19.72348
G1 X60.935 Y40.94 E19.743
G1 X60.596 Y41.178 E19.76264
G1 X60.27 Y41.431 E19.78219
G1 X59.621 Y41.981 E19.82251
G1 X59.609 Y41.969 E19.82332
G1 X59.545 Y42.045 E19.8259
G1 X59.469 Y42.109 E19.83061
G1 X59.481 Y42.121 E19.83099
G1 X58.931 Y42.77 E19.87131
G1 X58.678 Y43.096 E19.89087
G1 X58.44 Y43.435 E19.9105
G1 X58.218 Y43.783 E19.93006
G1 X58.012 Y44.141 E19.94964
G1 X57.822 Y44.508 E19.96923
G1 X57.649 Y44.884 E19.98884
G1 X57.494 Y45.267 E20.00843
G1 X57.356 Y45.656 E20.02799
G1 X57.236 Y46.051 E20.04756
G1 X57.133 Y46.452 E20.06718
G1 X57.049 Y46.857 E20.08678
G1 X56.985 Y47.265 E20.10636
G1 X56.938 Y47.674 E20.12587
G1 X56.909 Y48.087 E20.14549
G1 X56.9 Y48.493 E20.16474
G1 X56.9 Y93.511 E22.2984
G1 X56.917 Y93.961 E22.31974
G1 X56.969 Y94.42 E22.34163
G1 X57.056 Y94.874 E22.36354
G1 X57.177 Y95.319 E22.3854
G1 X57.331 Y95.755 E22.40732
G1 X57.519 Y96.177 E22.42921
G1 X57.736 Y96.583 E22.45103
G1 X57.984 Y96.973 E22.47294
G1 X58.258 Y97.337 E22.49453
G1 X58.414 Y97.523 E22.50604
G1 X58.728 Y97.855 E22.52769
G1 X59.069 Y98.165 E22.54954
G1 X59.434 Y98.449 E22.57145
G1 X59.819 Y98.706 E22.59339
G1 X60.221 Y98.93 E22.61521
G1 X60.634 Y99.123 E22.63681
G1 X61.225 Y99.358 E22.66696
G1 X61.226 Y99.359 E22.66702
G1 X61.413 Y99.432 E22.67654
G1 X61.484 Y99.243 E22.6827
G1 X61.534 Y99.111 E22.68939
G1 X61.573 Y99.005 E22.69475
G1 X61.959 Y97.978 E22.74675
G1 X61.848 Y99.107 E22.76728
G1 X61.904 Y99.204 E22.77194
G1 X64.15 Y103.095 E22.98488
G1 X64.3 Y103.336 E22.99833
G1 X64.468 Y103.577 E23.01226
G1 X64.651 Y103.806 E23.02615
G1 X64.844 Y104.024 E23.03995
G1 X65.053 Y104.234 E23.05399
G1 X65.274 Y104.428 E23.06793
G1 X65.504 Y104.609 E23.0818
G1 X65.743 Y104.777 E23.09565
G1 X65.993 Y104.931 E23.10956
G1 X66.253 Y105.07 E23.12354
G1 X66.518 Y105.194 E23.1374
G1 X66.792 Y105.302 E23.15136
G1 X67.072 Y105.393 E23.16532
G1 X67.354 Y105.468 E23.17915
G1 X67.641 Y105.526 E23.19303
G1 X68.4 Y105.636 E23.22937
G1 X68.4 Y105.651
G1 X68.4 Y105.665
G0 F3600 X69.661 Y105.505
G0 X70.558 Y105.181
G0 X75 Y102.921
G0 X75 Y103.021
G1 F2400 X74.83 Y103.299 E23.24482
G1 X74.178 Y104.364 E23.304
G1 X73.922 Y104.721 E23.32482
G1 X73.628 Y105.081 E23.34685
G1 X73.328 Y105.399 E23.36757
G1 X73.012 Y105.697 E23.38816
G1 X72.649 Y105.994 E23.41039
G1 X72.302 Y106.243 E23.43063
G1 X71.911 Y106.486 E23.45245
G1 X71.514 Y106.698 E23.47378
G1 X71.108 Y106.882 E23.49491
G1 X70.701 Y107.036 E23.51553
G1 X70.276 Y107.165 E23.53658
G1 X69.827 Y107.269 E23.55843
G1 X69.391 Y107.341 E23.57937
G1 X68.952 Y107.384 E23.60028
G1 X68.5 Y107.4 E23.62172
G1 X68.048 Y107.384 E23.64315
G1 X67.609 Y107.341 E23.66406
G1 X67.173 Y107.269 E23.685
G1 X66.724 Y107.165 E23.70685
G1 X66.299 Y107.036 E23.7279
G1 X65.892 Y106.882 E23.74852
G1 X65.486 Y106.698 E23.76965
G1 X65.089 Y106.486 E23.79098
G1 X64.698 Y106.243 E23.8128
G1 X64.351 Y105.994 E23.83304
G1 X63.988 Y105.697 E23.85527
G1 X63.672 Y105.399 E23.87586
G1 X63.372 Y105.081 E23.89658
G1 X63.078 Y104.721 E23.91861
G1 X62.823 Y104.365 E23.93936
G1 X62.577 Y103.969 E23.96146
G1 X60.943 Y101.138 E24.11638
G1 X60.252 Y100.906 E24.15093
G1 X59.807 Y100.726 E24.17368
G1 X59.359 Y100.511 E24.19723
G1 X58.93 Y100.271 E24.22053
G1 X58.546 Y100.024 E24.24217
G1 X58.131 Y99.722 E24.26649
G1 X57.775 Y99.425 E24.28847
G1 X57.415 Y99.085 E24.31194
G1 X57.083 Y98.734 E24.33484
G1 X56.766 Y98.352 E24.35836
G1 X56.485 Y97.966 E24.38099
G1 X56.22 Y97.554 E24.40421
G1 X55.988 Y97.138 E24.42678
G1 X55.773 Y96.691 E24.45029
G1 X55.595 Y96.252 E24.47275
G1 X55.433 Y95.771 E24.4968
G1 X55.358 Y95.502 E24.51004
G1 X55.291 Y95.225 E24.52354
G1 X55.234 Y94.945 E24.53709
G1 X55.184 Y94.646 E24.55146
G1 X55.147 Y94.358 E24.56522
G1 X55.121 Y94.077 E24.57859
G1 X55.106 Y93.793 E24.59207
G1 X55.1 Y93.5 E24.60596
G1 X55.1 Y48.515 E26.73806
G1 X55.114 Y47.951 E26.7648
G1 X55.153 Y47.423 E26.78989
G1 X55.218 Y46.896 E26.81506
G1 X55.308 Y46.378 E26.83997
G1 X55.424 Y45.865 E26.8649
G1 X55.571 Y45.331 E26.89115
G1 X55.739 Y44.823 E26.91651
G1 X55.928 Y44.333 E26.9414
G1 X56.149 Y43.835 E26.96723
G1 X56.38 Y43.375 E26.99162
G1 X56.643 Y42.909 E27.01698
G1 X56.94 Y42.44 E27.0433
G1 X57.248 Y42.002 E27.06867
G1 X57.571 Y41.589 E27.09352
G1 X57.927 Y41.177 E27.11933
G1 X58.289 Y40.796 E27.14424
G1 X58.677 Y40.427 E27.16962
G1 X59.089 Y40.071 E27.19542
G1 X59.5 Y39.75 E27.22014
G1 X59.94 Y39.44 E27.24565
G1 X60.395 Y39.152 E27.27117
G1 X60.859 Y38.889 E27.29645
G1 X61.335 Y38.649 E27.32172
G1 X61.833 Y38.428 E27.34754
G1 X62.324 Y38.239 E27.37248
G1 X62.838 Y38.069 E27.39814
G1 X63.365 Y37.924 E27.42404
G1 X63.87 Y37.81 E27.44858
G1 X64.405 Y37.717 E27.47432
G1 X64.928 Y37.652 E27.49929
G1 X65.459 Y37.614 E27.52453
G1 X66.015 Y37.6 E27.55089
G1 X83.985 Y37.6 E28.40259
G1 X84.541 Y37.614 E28.42895
G1 X85.072 Y37.652 E28.45418
G1 X85.595 Y37.717 E28.47916
G1 X86.13 Y37.81 E28.50489
G1 X86.635 Y37.924 E28.52943
G1 X87.162 Y38.069 E28.55534
G1 X87.676 Y38.239 E28.581
G1 X88.167 Y38.428 E28.60593
G1 X88.665 Y38.649 E28.63175
G1 X89.141 Y38.889 E28.65702
G1 X89.605 Y39.152 E28.6823
G1 X90.06 Y39.44 E28.70782
G1 X90.5 Y39.75 E28.73333
G1 X90.911 Y40.071 E28.75805
G1 X91.323 Y40.427 E28.78385
G1 X91.704 Y40.789 E28.80876
G1 X92.073 Y41.177 E28.83414
G1 X92.429 Y41.589 E28.85995
G1 X92.746 Y41.994 E28.88432
G1 X93.06 Y42.44 E28.91018
G1 X93.352 Y42.901 E28.93604
G1 X93.615 Y43.366 E28.96136
G1 X93.851 Y43.835 E28.98624
G1 X94.072 Y44.333 E29.01207
G1 X94.258 Y44.815 E29.03655
G1 X94.426 Y45.322 E29.06187
G1 X94.574 Y45.857 E29.08818
G1 X94.688 Y46.359 E29.11258
G1 X94.782 Y46.896 E29.13841
G1 X94.847 Y47.417 E29.1633
G1 X94.886 Y47.951 E29.18868
